!!!!SEGMENT: pl-wn--mus-iii-83-273--002_wieniawski-henryk--rondo-elegant-op-9-rondo-elegant.krn
!!!cenid: 18xx:3799
!!!COM: Wieniawski, Henryk
!!!COM-rismID: pe137176
!!!CDT: 1835/07/10-1880/03/31
!!!CNT:
!!!GTL: Opus 9
!!!OTL: Rondo élégant
!!!PDT:
!!!AGN:
!!!SMS-siglum: PL-Wn
!!!SMS-shelfmark: Mus.III.83.273
!!!SMS-shelfwork: 002 G
!!!SMS-variant:
!!!SMS-altvar:
!!!NIFC-rismSourceID:
!!!NIFC-rismChildID:
!!!NIFC-islandoraID: none
!!!URL-pdf-islandora:
!!!URL-scan: https://polona.pl/item/romance-sans-paroles-et-rondo-elegant-op-9,NzI1MzY1OTQ/4 @EN{Scan on Polona} @PL{Skany w portalu Polona}
!!!ONB-nifc: UWAGA: części: 1. Romance sans Paroles i 2. Rondo elegant (od skanu 10)
!!!AIN: 2 piano 1 violn
!!!OMD: Rondo Elégant. \nAllegro giojoso.
!!!key:
**kern	**kern	**dynam	**kern	**dynam
*	*	*	*scale:70%	*
*part3	*part2	*part2	*part1	*part1
*staff3	*staff2	*	*staff1	*
*Ipiano	*Ipiano	*	*Ivioln	*
*I"PIANO.	*I"PIANO.	*	*I"VIOLON.	*
*ICklav	*ICklav	*	*ICstr	*
*IGacmp	*IGacmp	*	*IGsolo	*
*>[A,A1,A,A2,B]	*>[A,A1,A,A2,B]	*>[A,A1,A,A2,B]	*>[A,A1,A,A2,B]	*>[A,A1,A,A2,B]
*>A	*>A	*>A	*>A	*>A
*clefG2	*clefG2	*	*clefG2	*
*mclefF4	*	*	*	*
*k[b-]	*k[b-]	*	*k[b-]	*
*d:	*d:	*	*d:	*
*M2/4	*M2/4	*	*M2/4	*
!	!	!LO:DY:b	!	!
16r	(>>16a/	mp	16r	.
!LO:MO:mod=*null:null	!	!	!	!
*clefF4	*	*	*	*
=1	=1	=1	=1	=1
*	*^	*	*	*
2G 2AA\	4b-^/	2c#X\	.	2r	.
.	8.a/L	.	.	.	.
.	16a/Jk	.	.	.	.
=2	=2	=2	=2	=2	=2
2F 2AA/	4b-^/	2d\	.	2r	.
.	8.a/L	.	.	.	.
.	16a/Jk	.	.	.	.
=3	=3	=3	=3	=3	=3
*^	*	*	*	*	*
4E/	2AA\	2b- 2g/	4c#X\	>	2r	.
4D/	.	.	4d\	.	.	.
*v	*v	*	*	*	*	*
*	*v	*v	*	*	*
=4	=4	=4	=4	=4
2C#X 2AA/	2a 2g 2e/)	]	4r	.
.	.	.	8r	.
!!LO:REH:t=E
.	.	.	(8a/	p
=5	=5	=5	=5	=5
[2AA [2AAA/	2r	sf	8bb-^\L)	.
.	.	.	(16aa\L	.
.	.	.	16a\JJ	.
.	.	.	8aa^\L)	.
.	.	.	(16gg#X\L	.
.	.	.	16a\JJ	.
=6	=6	=6	=6	=6
2AA_ 2AAA/_	2r	.	8ggn^\L)	.
.	.	.	(16ff#X\L	.
.	.	.	16a\JJ	.
.	.	.	8ffn^\L)	.
.	.	.	(16ee\L	<
.	.	.	16a\JJ	.
!!LO:PB:g=original
=7	=7	=7	=7	=7
2AA_ 2AAA/_	4r	.	16ddM\LL	.
.	.	.	16cc#X\	.
.	.	.	16dd\	.
.	.	.	16ee\JJ	.
.	((>>4g#X 4f [4d/	<[	8ff\L)	.
.	.	.	(16ee\L	.
.	.	.	16dd\JJ)	[[
=8	=8	=8	=8	=8
*	*^	*	*	*
2AA] 2AAA/]	2a 2e/)	4d\]	>	(4dd\	>
.	.	4c#X\)	.	4cc#X\)	]]
*	*v	*v	*	*	*
=9	=9	=9	=9	=9
!	!LO:TX:t=P:problem:mixed beam	!	!	!
2ryy	8Gn</L	] f	((16b-\LL	f <
.	.	.	16cc#X\	.
.	8b- 8e 8c#X\	.	16ee\)	.
.	.	.	16bb-'\JJ)	[
.	8F</	.	(8bb-\L	>
.	8aJ 8d 8A\	.	8aa\J)	]]
=10	=10	=10	=10	=10
!	!LO:TX:t=P:problem:mixed beam	!	!	!
2ryy	8E</L	p	((16b-\LL	p <
.	.	.	16cc#X\	.
.	8gn 8c#X 8A\	.	16ee\)	.
.	.	.	16gg'\JJ)	.
.	8D</	.	(8gg\L	[ >
.	8fJ 8d 8A\	.	8ff\J)	]]
=11	=11	=11	=11	=11
!	!LO:TX:t=P:problem:mixed beam	!	!	!
2ryy	8G</L	f	((16b-\LL	f <
.	.	.	16cc#X\	.
.	8b- 8e 8c#X\	.	16ee\)	.
.	.	.	16bb-'\JJ)	[
.	8F</	.	(8bb-\L	>
.	8aJ 8d 8A\	.	8aa\J)	]]
=12	=12	=12	=12	=12
!	!LO:TX:t=P:problem:mixed beam	!	!	!
2ryy	8E</L	p	((16b-\LL	p <
.	.	.	16cc#X\	.
.	8g 8c#X 8A\	.	16ee\)	.
.	.	.	16gg'\JJ)	[
.	8D</	.	(8gg\L	>
.	8fJ 8d 8A\	.	8ff\J	]]
!!LO:LB:g=original
=13	=13	=13	=13	=13
8BB- 8BBB-/	8f 8d 8B- 8F/	f <	8ddd^\)	f
4BB- 4BBB-/	4f 4d 4B- 4F/	.	4ddd^\	<
8BB- 8BBB-/	8f 8d 8B- 8F/	.	[8ddd^L\	.
=14	=14	=14	=14	=14
8AA 8AAA/	8f 8d 8A 8F/	.	8dddJ\]	.
4AA 4AAA/	4f 4d 4A 4F/	.	4ddd^\	.
8AA 8AAA/	8f 8d 8A 8F/	[[	8ddd^\	[[
=15	=15	=15	=15	=15
!	!LO:TX:t=P:problem:mixed beam	!	!	!
2ryy	8GG<L 8GGG</	>	(16ddd\LL	>
.	.	.	16bb-\)	.
.	8e 8d 8B-\	.	16gg'\	.
.	.	.	16ee'\JJ	.
.	8AA< 8AAA</	.	8.dd\L	]
.	8fJ 8d 8A\	]]	.	.
.	.	.	16dd\Jk	p
=16	=16	=16	=16	=16
!	!LO:TX:t=P:problem:mixed beam	!	!	!
2ryy	8AA<L 8AAA</	p	(16cc#X\LL	<
.	.	.	16dd\	.
.	8e 8c#X 8A 8G\	.	16ee\)	.
.	.	.	16gg'\JJ	[
.	8DD< 8DDD</	.	(8gg\L	>
.	8fJ 8d 8A 8F\	.	8ff\J	]]
=17	=17	=17	=17	=17
8BB- 8BBB-/	8f 8d 8B- 8F/	f <	8ddd^\)	f
4BB- 4BBB-/	4f 4d 4B- 4F/	.	4ddd^\	<
[8BB-L [8BBB-/	[8f#XL [8d [8B- [8F#X/	.	[8ddd^\	.
=18	=18	=18	=18	=18
8BB-]J 8BBB-/]	8f#]J 8d] 8B-] 8F#/]	.	8ddd\L]	.
4BB- 4BBB-/	4g 4d 4B- 4G/	.	8ddd^\	.
.	.	.	8ddd^\	.
8BB- 8BBB-/	8g#X 8d 8B- 8G#X/	.	8ddd^J\	.
=19	=19	=19	=19	=19
8BB- 8BBB-/	8g#X 8d 8B- 8G#X/	.	(16dddM\LL	.
.	.	[	16ccc#X\	.
8r	8r	.	16ddd\	.
.	.	.	16eee\JJ	.
4r	4r	.	8fff\L)	.
.	.	.	((<<8gg#Xt\J	[
.	.	.	16qqff##X/LL	.
.	.	.	16qqgg#/JJ)	[[
=20	=20	=20	=20	=20
8r	8r	.	8aa\L)	>
8AAL 8AAA/	8cc#XL 8a 8gn'>/	>	((<8cc#X't\J	.
.	.	.	16qqbnLL/	.
.	.	.	16qqcc#JJ/	.
8DDJ 8DDD/	8ddJ 8a 8f'>/	]]	8dd\))	]]
8r	8r	.	8r	.
!!LO:REH:t=F
!!LO:LB:g=original
=21	=21	=21	=21	=21
.	.	.	(>>(16qqd/LL	.
.	.	.	16qqa/	.
.	.	.	16qqff/JJ	.
4.D 4.DD/	16r	p	8aa^\L)	p
.	(>16A/LL	.	.	.
.	.	.	(8qccc/	.
.	16d/	.	8bb-\J))	>
.	16f/JJ	.	.	.
.	4a^>/)	.	4aa~\	]]
(8AA 8AAA'/	.	.	.	.
=22	=22	=22	=22	=22
.	.	.	(>>(16qqd/LL	.
.	.	.	16qqa/JJ	.
4.D 4.DD/)	16r	.	8ff^\L)	.
.	(>16A/LL	.	.	.
.	.	.	(8qaa/	.
.	16d/	.	8gg\J))	>
.	16e/JJ	.	.	.
.	4f^>/)	.	4ff~\	]]
(8AA 8AAA'/	.	.	.	.
=23	=23	=23	=23	=23
.	.	.	(>>(16qqd/LL	.
.	.	.	16qqa/	.
.	.	.	16qqff/JJ	.
4.D 4.DD/)	16r	.	8aa^\L)	.
.	(>16A/LL	.	.	.
.	.	.	(8qccc/	.
.	16d/	.	8bb-\J))	>
.	16f/JJ	.	.	.
.	4a^>/)	.	4aa~\	]]
(8AA 8AAA'/	.	.	.	.
=24	=24	=24	=24	=24
.	.	.	(>>(16qqd/LL	.
.	.	.	16qqa/JJ	.
4.D 4.DD/)	16r	.	8ff^\L)	.
.	(16A/LL	.	.	.
.	.	.	(8qaa/	.
.	16d/	.	8gg\J))	>
.	16e/JJ	.	.	.
.	4f^/)	.	4ff~\	]]
(<8A'<\	.	.	.	.
=25	=25	=25	=25	=25
!	!	!	!	!LO:HP:t=poco cresc.
.	.	.	(>>(16qqg#X/LL	<
.	.	.	16qqdd/JJ	.
4.G#X 4.GG#X/)	16r	.	8ee^\L)	.
.	(>16d/LL	.	.	.
.	.	.	(8qggn/	.
.	16e/	.	8ff\J))	>
.	16bn/JJ	.	.	.
.	4ee^>\)	.	4ee~\	]]
(8E'<\	.	.	.	.
=26	=26	=26	=26	=26
.	.	.	(>>(16qqa/LL	.
.	.	.	16qqcc#X/JJ	.
4.A 4.AA\)	16r	.	8ee^\L)	.
.	(16c#X/LL	.	.	.
.	.	.	(8qgg/	.
.	16e/	.	8ff\J))	>
.	16a/JJ	.	.	.
.	4ee^\)	.	4ee~\	]]
(<8E'<\	.	.	.	.
!!LO:LB:g=original
=27	=27	=27	=27	=27
.	.	.	(>>(16qqg#X/LL	.
.	.	.	16qqdd/JJ	.
4.B-X 4.BB-X\)	16r	.	8ee^\L)	.
.	(16d/LL	.	.	.
.	.	.	(8qggn/	.
.	16e/	.	8ff\J))	>
.	16g#X/JJ	.	.	.
.	4ee^\)	.	4ee~\	]]
(<8E'<\	.	.	.	.
=28	=28	=28	=28	=28
.	.	.	(>16qqa/LL	.
.	.	.	16qqcc#X/JJ	.
8A 8E 8AA;\)	8a 8gn 8c#X;/	.	8ee;\L)	.
8r;	8r;	.	8bb-;\	>
4r;	4r;	.	8aa;\	.
.	.	.	8gg#X;\J	]]
=29	=29	=29	=29	=29
*	*	*	*^	*
.	.	.	(>>16qqd/LL	.	.
.	.	.	16qqa/	.	.
.	.	.	16qqff/JJ	.	.
4.D 4.DD/	16r	p	8aa~^/L	8a 8d\	p
.	(>16A/LL	.	.	.	.
.	.	.	(8qccc/	.	.
.	16d/	.	8bb-~>/J))	8ryy	>
.	16f/JJ	.	.	.	.
.	4a^>/)	.	4aa~>/	4ryy	]]
(8AA 8AAA'/	.	.	.	.	.
=30	=30	=30	=30	=30	=30
.	.	.	(>>16qqd/LL	.	.
.	.	.	16qqa/JJ	.	.
4.D 4.DD/)	16r	.	8ff~^/L	8a 8d\	.
.	(>16A/LL	.	.	.	.
.	.	.	(8qaa/	.	.
.	16d/	.	8gg~>/J))	8ryy	>
.	16e/JJ	.	.	.	.
.	4f^>/)	.	4ff~>/	4ryy	]]
(8AA 8AAA'/	.	.	.	.	.
=31	=31	=31	=31	=31	=31
.	.	.	(>>16qqd/LL	.	.
.	.	.	16qqa/	.	.
.	.	.	16qqff/JJ	.	.
4.D 4.DD/)	16r	.	8aa~^/L	8a 8d\	.
.	(>16A/LL	.	.	.	.
.	.	.	(8qccc/	.	.
.	16d/	.	8bb-~>/J))	8ryy	>
.	16f/JJ	.	.	.	.
.	4a^>/)	.	4aa~>/	4ryy	]]
(8AA 8AAA'/	.	.	.	.	.
=32	=32	=32	=32	=32	=32
.	.	.	(>>16qqd/LL	.	.
.	.	.	16qqa/JJ	.	.
4.D 4.DD/)	16r	.	8ff~^/L	8a 8d\	.
.	(>16A/LL	.	.	.	.
.	.	.	(8qaa/	.	.
.	16d/	.	8gg~>/J))	8ryy	>
.	16e/JJ	.	.	.	.
.	4f^>/)	.	4ff~>/	4ryy	]]
(<8A'\	.	.	.	.	.
*	*	*	*v	*v	*
!!LO:PB:g=original
=33	=33	=33	=33	=33
!	!	!	!	!LO:HP:t=poco cresc.
.	.	.	(>>16qqg#X/LL	<
.	.	.	16qqdd/JJ	.
!	!	!LO:HP:t=poco cresc.	!	!
4.G#X 4.GG#X/)	16r	<	8ee^\L	.
.	(16d/LL	.	.	.
.	.	.	(8qgg/	.
.	16e/	.	8ff\J))	>
.	16bn/JJ	.	.	.
.	4ee^\)	.	4ee~\	]]
(<8E'<\	.	.	.	.
=34	=34	=34	=34	=34
.	.	.	(>>16qqa/LL	.
.	.	.	16qqcc#X/JJ	.
4.A 4.AA\)	16r	.	8ee^\L	.
.	(16c#X/LL	.	.	.
.	.	.	(16qgg/	.
.	16e/	.	8ff\J))	>
.	16a/JJ	.	.	.
.	4ee^\)	.	4ee~\	]]
(<8E'<\	.	.	.	.
=35	=35	=35	=35	=35
.	.	.	(>>16qqg#X/LL	.
.	.	.	16qqdd/JJ	.
4.B-X 4.BB-X\)	16r	.	8ee^\L	.
.	(16d/LL	.	.	.
.	.	.	(8qgg/	.
.	16e/	.	8ff\J))	>
.	16g#X/JJ	.	.	.
.	4ee^\)	.	4ee~\	]]
(<8E'<\	.	.	.	.
.	.	.	(>>16qqa/LL	.
.	.	.	16qqcc#X/	.
.	.	.	16qqee/JJ	.
=36	=36	=36	=36	=36
8A 8E 8AA\)	8a 8gn 8c#X/	.	2aat\)	<
8r	8r	.	.	.
4c#X 4A\	(4aa 4cc#X 4a\	<	.	.
=37	=37	=37	=37	=37
4d 4Bn 4A\	4aa 4dd 4bn 4a\	.	4.aa^<t\	.
4d#X 4B#X 4A\	4aa 4dd#X 4b#X 4a\	.	.	.
.	.	.	8aa^<t\	.
=38	=38	=38	=38	=38
4e 4c#X 4A\	4aa 4ee 4cc#X 4a\	.	8aa^<t\L	.
.	.	.	8aa^<t\	.
8fL 8dn 8A\	8aaL 8ff 8ddn 8a\	.	8aa^<t\	.
8f#XJ 8d#X 8A\	8aaJ 8ff#X 8dd#X 8a\	.	8aa^<t\J	.
=39	=39	=39	=39	=39
4g 4e 4A\	4aa 4gg 4cc#X 4a\)	f	((<<4aa^<t\	f >
.	.	.	8qgg#X/)	.
4r	4r	.	8aa\L)	.
!!LO:REH:t=G
.	.	.	(8a\J	] p
!!LO:LB:g=original
=40	=40	=40	=40	=40
[2AA [2AAA/	2r	sf	8bb-^\L)	.
.	.	.	(16aa\L	.
.	.	.	16a\JJ	.
.	.	.	8aa^\L)	.
.	.	.	(16gg#X\L	.
.	.	.	16a\JJ	.
=41	=41	=41	=41	=41
2AA_ 2AAA/_	2r	.	8ggn^\L)	.
.	.	.	(16ff#X\L	.
.	.	.	16a\JJ	.
.	.	.	8ffn^\L)	.
.	.	.	(16ee\L	<
.	.	.	16a\JJ	.
=42	=42	=42	=42	=42
2AA_ 2AAA/_	4r	.	16ddM\LL	.
.	.	.	16cc#X\	.
.	.	.	16dd\	.
.	.	.	16ee\JJ	.
.	((>>4g#X 4f [4d/	<	8ff\L)	.
.	.	.	(16ee\L	.
.	.	[	16dd\JJ)	[[
=43	=43	=43	=43	=43
*	*^	*	*	*
2AA] 2AAA/]	2a 2e/)	4d\]	>	(4dd\	>
.	.	4c#X\)	]]	4cc#X\)	]]
*	*v	*v	*	*	*
=44	=44	=44	=44	=44
!	!LO:TX:t=P:problem:mixed beam	!	!	!
2ryy	8G</L	f	((16b-\LL	f <
.	.	.	16cc#X\	.
.	8b- 8e 8c#X\	.	16ee\)	.
.	.	.	16bb-'\JJ)	[
.	8F</	.	(8bb-\L	>
.	8aJ 8d 8A\	.	8aa\J)	]]
=45	=45	=45	=45	=45
!	!LO:TX:t=P:problem:mixed beam	!	!	!
2ryy	8E</L	p	((16b-\LL	p <
.	.	.	16cc#X\	.
.	8g 8c#X 8A\	.	16ee\)	.
.	.	.	16gg'\JJ)	[
.	8D</	.	(8gg\L	>
.	8fJ 8d 8A\	.	8ff\J)	]]
=46	=46	=46	=46	=46
!	!LO:TX:t=P:problem:mixed beam	!	!	!
2ryy	8G</L	f	((16b-\LL	f <
.	.	.	16cc#X\	.
.	8b- 8e 8c#X\	.	16ee\)	.
.	.	.	16bb-'\JJ)	[
.	8F</	.	(8bb-\L	>
.	8aJ 8d 8A\	.	8aa\J)	]]
!!LO:LB:g=original
=47	=47	=47	=47	=47
!	!LO:TX:t=P:problem:mixed beam	!	!	!
2ryy	8E</L	p	((16b-\LL	p <
.	.	.	16cc#X\	.
.	8g 8c#X 8A\	.	16ee\)	.
.	.	.	16gg'\JJ)	[
.	8D</	.	(8gg\L	>
.	8fJ 8d 8A\	.	8ff\J	]]
=48	=48	=48	=48	=48
8BB- 8BBB-/	8f 8d 8B- 8F/	f <	8ddd^\)	f
4BB- 4BBB-/	4f 4d 4B- 4F/	.	4ddd^\	<
8BB- 8BBB-/	8f 8d 8B- 8F/	.	[8ddd^L\	.
=49	=49	=49	=49	=49
8AA 8AAA/	8f 8d 8A 8F/	.	8dddJ\]	.
4AA 4AAA/	4f 4d 4A 4F/	.	4ddd^\	.
8AA 8AAA/	8f 8d 8A 8F/	[	8ddd^\	[[
=50	=50	=50	=50	=50
!	!LO:TX:t=P:problem:mixed beam	!	!	!
2ryy	8GG<L 8GGG</	>	(16ddd\LL	>
.	.	.	16bb-\)	.
.	8e 8d 8B-\	.	16gg'\	.
.	.	.	16ee'\JJ	.
.	8AA< 8AAA</	.	8.dd\L	.
.	8fJ 8d 8A\	]]	.	]
.	.	.	16dd\Jk	p
=51	=51	=51	=51	=51
!	!LO:TX:t=P:problem:mixed beam	!	!	!
2ryy	8AA<L 8AAA</	p	(16cc#X\LL	<
.	.	.	16dd\	.
.	8e 8c#X 8A 8G\	.	16ee\)	.
.	.	.	16gg'\JJ	[
.	8DD< 8DDD</	.	(8gg\L	>
.	8fJ 8d 8A 8F\	.	8ff\J	]]
=52	=52	=52	=52	=52
8BB- 8BBB-/	8f 8d 8B- 8F/	f <	8ddd^\)	f
4BB- 4BBB-/	4f 4d 4B- 4F/	.	4ddd^\	<
[8BB-L [8BBB-/	[8f#X [8d [8B- [8F#X/	.	[8ddd^\	.
=53	=53	=53	=53	=53
8BB-]J 8BBB-/]	8f#] 8d] 8B-] 8F#/]	.	8dddL\]	.
4BB- 4BBB-/	4g 4d 4B- 4G/	.	8ddd^\	.
.	.	.	8ddd^\	.
8BB- 8BBB-/	8g#X 8d 8B- 8G#X/	.	8dddJ^\	.
!!LO:LB:g=original
=54	=54	=54	=54	=54
8BB- 8BBB-/	8g 8d 8B- 8G#X/	.	(16dddM\LL	.
.	.	.	16ccc#X\	.
8r	8r	[	16ddd\	.
.	.	.	16eee\JJ	.
4r	4r	.	8fff\L)	[
.	.	.	((<<8gg#Xt\J	.
.	.	.	16qqff##X/LL	.
.	.	.	16qqgg#/JJ)	.
=55	=55	=55	=55	=55
8r	8r	.	8aa\L)	>
8AAL 8AAA/	8cc#XL 8a 8gn'/	>	((<<8cc#Xt\J	.
.	.	.	16qqbnLL/	.
.	.	.	16qqcc#JJ/)	.
8DDJ 8DDD/	8ddJ 8a 8f'/	.	8.dd\L)	.
8r	8r	]	.	]
!!LO:REH:t=H
.	.	.	16a'\Jk	p <
=56	=56	=56	=56	=56
!	!	!	!LO:TX:b:t=risoluto	!
2r	2r	.	4dd\	.
.	.	.	(8.ff~/L	.
.	.	.	16d'/Jk)	[[
=57	=57	=57	=57	=57
2r	2r	.	4ee 4g\	>
.	.	.	4dd 4b-\	]
=58	=58	=58	=58	=58
*	*	*	*^	*
2r	2r	.	([4cc#X/	8r	<
.	.	.	.	8b-\L	.
.	.	.	8cc#/L]	8a\	.
.	.	.	8cc#'/J)	8g\J	[[
*	*	*	*v	*v	*
=59	=59	=59	=59	=59
2r	2r	.	4dd 4f/	>
.	.	.	(4ee 4a^\	] <
=60	=60	=60	=60	=60
2r	2r	.	4ff 4dd\)	.
.	.	.	(4gg 4cc^\	.
=61	=61	=61	=61	=61
2r	2r	.	4aa 4ff\)	.
.	.	.	4bbn 4ee\	.
=62	=62	=62	=62	=62
2r	2r	.	8.cccL 8.aa\	.
.	.	.	16bbnK 16dd\	.
.	.	.	(8aa 8cc'\	.
.	.	.	8gg#XJ 8bn 8e'\)	[[
!!LO:PB:g=original
=63	=63	=63	=63	=63
2r	2r	.	4aa 4cc#X 4e 4A/	f >
.	.	.	8.r	]
.	.	.	16a/	p <
=64	=64	=64	=64	=64
2r	8.r	.	4dd\	.
.	(16a/	p	.	.
.	4dd\)	.	(8.ff~/L	.
.	.	.	16d'/Jk)	[
=65	=65	=65	=65	=65
2r	8.r	.	4ee 4g\	>
.	(16b-\	.	.	.
.	4ee\)	.	4dd 4b-\	]
=66	=66	=66	=66	=66
*	*	*	*^	*
2r	8.r	.	([4cc#X/	8r	<
.	.	.	.	8b-\L	.
.	(16ee\	.	.	.	.
.	4aa\)	.	8cc#/L]	8a\	.
.	.	.	8cc#'/J)	8g\J	[
*	*	*	*v	*v	*
*clefG2	*	*	*	*
=67	=67	=67	=67	=67
8r	4r	.	4dd 4f/	>
8d/L	.	.	.	]
8c#X/	(8a'\L	<	(4ee 4a^\	<
8A/J	8aa'\J	.	.	.
=68	=68	=68	=68	=68
8a/L	8ff'\L	.	4ff 4dd\)	.
8f/	8dd'\	.	.	.
8e/	8cc'\	.	(4gg 4cc^\	.
8cn/J	8ccc'\J	.	.	.
=69	=69	=69	=69	=69
8cc/L	8aa'\L	.	4aa 4ff\)	.
8a/	8ff'\	.	.	.
8g#X/	8ee'\	.	4bbn 4ee\	.
8e/J	8eee'\J	.	.	.
=70	=70	=70	=70	=70
8.r	8.cccL 8.ee\	.	8.cccL 8.aa\	.
*clefF4	*	*	*	*
16D 16DD/	16bbnJk 16ff 16dd\	.	16bbnK 16dd\	.
8EL 8EE/	8aaL 8ee 8cc\	.	(8aa 8cc'\	.
8EEJ 8EEE/	8gg#XJ 8dd 8bn\	.	8gg#XJ 8bn 8e'\)	.
!!LO:LB:g=original
=71	=71	=71	=71	=71
4AA 4AAA/	4aa 4cc#X 4a\)	f	4aa 4cc#X 4e 4A/	f
4r	4r	.	8.r	.
!!LO:REH:t=J
.	.	.	16a/	p <
=72	=72	=72	=72	=72
!	!	!	!LO:TX:b:i:t=caratteristico	!
2r	2r	.	4ee\	.
.	.	.	4ff\	[
=73	=73	=73	=73	=73
2r	2r	.	(8.dd~\L	>
.	.	.	16a'\Jk)	] <
.	.	.	8dd\L	.
.	.	.	8ff\J	.
=74	=74	=74	=74	=74
2r	2r	.	(8.aa~\L	.
.	.	.	16bbn'\Jk)	.
.	.	.	8ccc#X\L	.
.	.	.	8aa\J	[
=75	=75	=75	=75	=75
2r	2r	.	(8.ddd~\L	>
.	.	.	16eee'\K)	] <
.	.	.	8fff'\	.
.	.	.	8ggg'\J	.
=76	=76	=76	=76	=76
*	*^	*	*	*
2g 2A\	(4ee/	2cc#X\	p <	2aaat\	[[
.	4ff/	.	[[	.	.
*	*v	*v	*	*	*
=77	=77	=77	=77	=77
2f 2A\	8.dd\L)	>	2aaat\	.
.	(16a\K	] <	.	.
.	8dd\	.	.	.
.	8ff\J	.	.	.
=78	=78	=78	=78	=78
2g 2A\	8.aaL 8.cc#X\	.	(<2aaat\	.
.	16bbnK 16dd\	.	.	.
.	8ccc 8ee\	.	.	.
.	8aaJ 8cc#\	[[	.	.
.	.	.	16qqggg#X/LL	.
.	.	.	16qqaaa/JJ)	.
=79	=79	=79	=79	=79
4f 4A 4D\	4ddd 4ff 4dd\)	>	4dddd\	.
4r	4r	]	8.r	.
.	.	.	16a/	<
=80	=80	=80	=80	=80
*	*tremolo	*	*	*
8AL 8AA\	16aaa\LL	pp <	(8.ee~\L	.
.	16aa\	.	.	.
8B- 8BB-\	16aaa\	.	.	.
.	16aa\	.	16a'\Jk)	.
8Bn 8BBn\	16aaa\	.	(8.ff~\L	.
.	16aa\	.	.	.
8c#XJ 8C#X\	16aaa\	.	.	.
.	16aa\JJ	[[	16a'\Jk)	[[
!!LO:LB:g=original
=81	=81	=81	=81	=81
8dL 8D\	16aaa\LL	>	8.dd\L	>
.	16aa\	] <	.	]
8e 8E\	16aaa\	.	.	.
.	16aa\	.	16aa\K	<
8f 8F\	16aaa\	.	8ddd\	.
.	16aa\	.	.	.
8dJ 8D\	16aaa\	.	8fff\J	.
.	16aa\JJ	.	.	.
=82	=82	=82	=82	=82
*	*	*	*8va	*
8c#XL 8C#X\	16aaa\LL	.	8.aaa\L	.
.	16aa\	.	.	.
8Bn 8BBn\	16aaa\	.	.	.
.	16aa\	.	16bbbn\K	.
8A 8AA\	16aaa\	.	8cccc#X\	.
.	16aa\	.	.	.
8GJ 8GG\	16aaa\	.	8aaa\J	[[
.	16aa\JJ	[[	.	.
=83	=83	=83	=83	=83
8FL 8FF/	16aaa\LL	>	8.dddd\L	>
.	16aa\	] <	.	]
8E 8EE/	16aaa\	.	.	.
.	16aa\	.	16eeee\K	<
8D 8DD/	16aaa\	.	8ffff\	.
.	16aa\	.	.	.
8BB-XJ 8BBB-X/	16aaa\	.	8gggg\J	[[
.	16aa\JJ	[[	.	.
*	*Xtremolo	*	*	*
=84	=84	=84	=84	=84
4AA 4AAA/	4aaa 4aa\	>	4aaaa\	>
.	.	.	.	]
*	*	*	*X8va	*
4A\	(4gg 4cc#X\	] p	(8.eee\L	<
.	.	.	16fff\Jk)	.
=85	=85	=85	=85	=85
*	*^	*	*	*
4B-\	4ff 4dd\	4ryy	<	(16ddd\LL	.
.	.	.	.	16eee\	.
.	.	.	.	16fff\	.
.	.	.	.	16ddd\JJ)	.
8G\L	4ee 4e/	8b-\L	.	(16bb-\LL	.
.	.	.	.	16eee\	.
8G#X\J	.	8bn\J	.	16ddd\)	.
.	.	.	.	16bbn'\JJ	.
*	*v	*v	*	*	*
=86	=86	=86	=86	=86
4A\	4ee 4cc#X 4a 4gn\	.	(<2ccc#Xt\	.
4AA 4AAA/	4aa 4gg 4cc# 4a\	.	.	.
.	.	.	16qqbbn/LL	.
.	.	.	16qqccc#/JJ)	.
=87	=87	=87	=87	=87
4DD 4DDD/	4ddd 4aa 4ff 4dd\)	f	4ddd\	f
4r	4r	.	8.r	.
!!LO:REH:t=K
.	.	.	16a/	f <
*	*clefF4	*	*	*
!!LO:LB:g=original
=88	=88	=88	=88	=88
8r	8r	.	4dd\	.
!LO:MO:mod=*tuplet	!	!	!	!
*Xtuplet	*	*	*	*
!LO:SIC:s=(24AAALL	!	!	!	!
24AAA/LL	(>24AA/LL	f	.	.
24BBBn/	24BBn/	.	.	.
24CC#X/JJ	24C#X/JJ	.	.	.
!LO:SIC:s=8DD)	!	!	!	!
8DD/	8D/)	.	(8.ff~/L	.
8r	8r	.	.	.
.	.	.	16d'/Jk)	[
=89	=89	=89	=89	=89
4r	4r	.	4ee 4g\	>
8r	8r	.	4dd 4b-\	]
!LO:MO:mod=*Xtuplet:null	!LO:MO:mod=*Xtuplet:null	!	!	!
*null	*null	*	*	*
!LO:SIC:s=(24EELL	!LO:TUP:a	!	!	!
24EE/LL	(24E\LL	.	.	.
24FF/	24F\	.	.	.
24GG/JJ	24G\JJ	.	.	.
=90	=90	=90	=90	=90
*	*	*	*^	*
!LO:SIC:s=8AA)	!	!	!	!	!
8AA/	8A\)	.	([4cc#X/	8r	<
8r	8r	.	.	8b-\L	.
8r	8r	.	8cc#/L]	8a\	.
!LO:SIC:s=(24AALL	!LO:TUP:a	!	!	!	!
24AA/LL	(24A\LL	.	8cc#'/J)	8g\J	[
24BBn/	24Bn\	.	.	.	.
24C#X/JJ	24c#X\JJ	.	.	.	.
*	*	*	*v	*v	*
=91	=91	=91	=91	=91
!LO:SIC:s=8D)	!	!	!	!
8D\	8d\)	.	4dd 4f/	>
8r	8r	.	.	]
8r	8r	.	(4ee 4a^\	<
*	*Xtuplet	*	*	*
!LO:SIC:s=(24AALL	!	!	!	!
24AA/LL	(24A\LL	<	.	.
24BBn/	24Bn\	.	.	.
24C#X/JJ	24c#X\JJ	.	.	.
=92	=92	=92	=92	=92
!LO:SIC:s=8D)	!	!	!	!
8D\	8d\)	.	4ff 4dd\)	.
8r	8r	.	.	.
8r	8r	.	(4gg 4cc^\	.
*	*clefG2	*	*	*
!LO:SIC:s=(24CnLL	!	!	!	!
24Cn\LL	(>24cn/LL	.	.	.
24D\	24d/	.	.	.
24E\JJ	24e/JJ	.	.	.
=93	=93	=93	=93	=93
!LO:SIC:s=8F)	!	!	!	!
8F\	8f/)	.	4aa 4ff\)	.
8r	8r	.	.	.
8r	8r	.	4bbn 4ee\	.
!LO:SIC:s=(24ELL	!	!	!	!
24E\LL	(>24e/LL	.	.	.
24F#X\	24f#X/	.	.	.
24G#X\JJ	24g#X/JJ	.	.	.
!!LO:PB:g=original
=94	=94	=94	=94	=94
!LO:SIC:s=8.A)	!	!	!	!
8.A\	8.a/)	.	8.cccL 8.aa\	.
!LO:SIC:s=(16DKL 16DD	!	!	!	!
16DKL 16DD/	(16bbnKL 16ff 16dd'\	.	16bbnK 16dd\	.
8E 8EE/	8aa 8ee 8cc'\	.	(8aa 8cc'\	.
8EEJ 8EEE/	8gg#XJ 8dd 8bn'\	.	8gg#XJ 8bn 8e'\)	.
=95	=95	=95	=95	=95
!LO:SIC:s=4AA 4AAA)	!	!	!	!
4AA 4AAA/	4aa 4cc#X 4a\)	sf	4aa 4cc#X 4e 4A/	sf
4r	4r	.	8.r	.
.	.	.	16a/	<
=96	=96	=96	=96	=96
2r	8r	.	4dd\	.
.	(24a\LL	.	.	.
.	24bn\	.	.	.
.	24cc#X\JJ	.	.	.
.	8dd\)	.	(8.ff~/L	.
.	8r	.	.	.
.	.	.	16d'/Jk)	[
=97	=97	=97	=97	=97
2r	4r	.	4ee 4g\	>
.	8r	.	4dd 4b-\	]
.	(24ee\LL	.	.	.
.	24ff\	.	.	.
.	24ggn\JJ	.	.	.
=98	=98	=98	=98	=98
*	*	*	*^	*
2r	8aa\)	.	([4cc#X/	8r	<
.	8r	.	.	8b-\L	.
.	8r	.	8cc#/L]	8a\	.
.	(24aa\LL	.	8cc#'/J)	8g\J	[
.	24bbn\	.	.	.	.
.	24ccc#X\JJ	.	.	.	.
*	*	*	*v	*v	*
=99	=99	=99	=99	=99
4r	8ddd\)	.	4dd 4f/	>
.	(>24d/LL	.	.	]
.	24e/	.	.	.
.	24f/JJ	.	.	.
8r	8g/)	.	(4ee 4a^\	<
(<24A\LL	8r	.	.	.
24Bn\	.	.	.	.
24c#X\JJ	.	.	.	.
!!LO:LB:g=original
=100	=100	=100	=100	=100
8d\)	8r	.	4ff 4dd\)	.
8r	(>24f/LL	.	.	.
.	24g/	.	.	.
.	24a/JJ	.	.	.
*clefG2	*	*	*	*
8r	8b-X/)	.	(4gg 4cc^\	.
(24cn/LL	8r	.	.	.
24d/	.	.	.	.
24e/JJ	.	.	.	.
=101	=101	=101	=101	=101
8f/)	8r	.	4aa 4ff\)	.
8r	(24a\LL	.	.	.
.	24bn\	.	.	.
.	24cc\JJ	.	.	.
8r	8dd\)	.	4bbn 4ee\	.
(24e/LL	8r	.	.	.
24f#X/	.	.	.	.
24g#X/JJ	.	.	.	.
=102	=102	=102	=102	=102
8.a/)	8.cccL 8.ee 8.cc\	.	8.cccL 8.aa\	.
*clefF4	*	*	*	*
!LO:SIC:s=(16DKL 16DD	!	!	!	!
16DKL 16DD/	(16bbnK 16ff 16dd'\	.	16bbnK 16dd\	.
8E 8EE/	8aa 8ee 8cc'\	.	(8aa 8cc'\	.
8EEJ 8EEE/	8gg#XJ 8dd 8bn'\	.	8gg#XJ 8bn 8e'\)	.
=103	=103	=103	=103	=103
!LO:SIC:s=4AA 4AAA)	!	!	!	!
4AA 4AAA/	4aa 4cc#X 4a\)	sf	4aa 4cc#X 4e 4A/	sf
4r	4r	.	4r	.
=104	=104	=104	=104	=104
!	!	!LO:HP:b=2	!	!
(<<4E\	2r	f <	2aat\	sf
!	!LO:TX:b:i:t=rit. e risoluto	!	!LO:TX:b:i:t=rit.	!
4F\	.	[[	.	.
=105	=105	=105	=105	=105
!	!	!LO:HP:b=2	!	!
8.D/L	2r	>	2aat\	sf
16AA/Jk	.	.	.	.
(<<8D\L)	.	]	.	.
8F\J	.	.	.	.
=106	=106	=106	=106	=106
!	!	!LO:HP:a	!	!
8A\	(4e/	f <	2aat\	sf
4G#X\	.	.	.	.
.	4f/	[[	.	.
[8Gn\	.	.	.	.
!!LO:LB:g=original
=107	=107	=107	=107	=107
8G\L]	8.d/L	< >	2aaat\	sf <
16F\L	.	.	.	.
16E\JJ	16A/K	.	.	.
8F\L	8d/)	]	.	.
8D\J	&(<8f/J	]]	.	.
=108	=108	=108	=108	=108
*	*^	*	*	*
!	!	!	!LO:HP:a	!	!
2C#X/	(4ee/	8a\	<	2aaat\	sf
.	.	4g#X\	.	.	.
.	4ff/	.	.	.	.
.	.	[8gn\	[	.	.
=109	=109	=109	=109	=109	=109
!	!	!	!LO:HP:a	!	!
2D\)	8.dd/L	8g\L]	>	2aaat\	sf
.	.	16f\L	.	.	.
.	16a/K	16e\JJ	]	.	.
!	!	!LO:TX:t=P:problem:mixed beam	!	!	!
.	8dd/)	8f\L	.	.	.
!LO:TX:b:i:t=m.s.	!	!	!	!	!
.	(8ff/J	8d</J&)	.	.	.
*	*v	*v	*	*	*
=110	=110	=110	=110	=110
4c#X 4AA\	4eee 4aa 4gg\	ff >	(<2aaat\	ff >
4AA 4AAA/	4fff 4ccc#X 4aa 4gg\	.	.	.
.	.	.	16qqggg#X/LL	.
.	.	.	16qqaaa/JJ)	.
=111	=111	=111	=111	=111
4D 4DD/	4ddd 4aa 4ff\)	]	4dddd\	]
4r	4r	.	4r	.
!!LO:REH:t=L
=112	=112	=112	=112	=112
*	*^	*	*	*
!	!LO:TX:a:i:t=  a tempo	!	!	!LO:TX:a:i:t=a tempo	!
2c#X 2A\	(4ee/	2a 2g\	p <	16aLL 16A/	p
.	.	.	.	16a 16A/	<
.	.	.	.	16a 16B-/	.
.	.	.	.	16aJJ 16B-/	.
.	4ff/	.	.	16aLL 16Bn/	.
.	.	.	.	16a 16B/	.
.	.	.	.	16a 16c#X/	.
.	.	.	[[	16aJJ 16c#/	[
=113	=113	=113	=113	=113	=113
2d 2A\	8.dd/L	2a 2f\	>	16aLL 16d/	>
.	.	.	.	16a 16d/	.
.	.	.	.	16a 16e/	.
.	16a/K	.	]	16aJJ 16e/	.
.	8dd/)	.	<	16aLL 16f/	.
.	.	.	.	16a 16f/	]
.	(8ff/J	.	.	16a 16g/	<
.	.	.	.	16aJJ 16g/	.
*	*v	*v	*	*	*
!!LO:LB:g=original
=114	=114	=114	=114	=114
2g 2c#X 2A\	8.aaL 8.a\	.	16aLL 16g#X/	.
.	.	.	16a 16g#/	.
.	.	.	16a/ 16a	.
.	16bbnK 16bn\	.	16a/JJ 16a	.
.	8ccc#X 8cc#X\	.	16bnLL 16a/	.
.	.	.	16b 16a/	.
.	8aaJ 8a\	.	16cc#X 16a/	.
.	.	.	16cc#JJ 16a/	.
=115	=115	=115	=115	=115
2f 2d 2A\	8.dddL 8.dd\	.	16ddLL 16a\	.
.	.	.	16dd 16a\	.
.	.	.	16ee 16a\	.
.	16eeeK 16ee\	.	16eeJJ 16a\	.
.	8fff 8ff\)	.	16ffLL 16a\	.
.	.	.	16ff 16a\	.
.	(8gggJ 8gg\	.	16gg 16a\	.
.	.	.	16ggJJ 16a\	.
=116	=116	=116	=116	=116
*	*^	*	*	*
2A 2AA\	4aaa 4aa\	4ryy	.	16gg#XLL 16a\	.
.	.	.	.	16gg# 16a\	.
.	.	.	.	16aa 16a\	.
.	.	.	.	16aaJJ 16a\	.
.	8.ee/L	4cc#X 4a 4g\	.	16bbnLL 16a\	.
.	.	.	.	16bb 16a\	.
.	.	.	.	16ccc#X 16a\	.
.	16ff/Jk	.	.	16ccc#JJ 16a\	.
*	*v	*v	*	*	*
=117	=117	=117	=117	=117
8.A 8.D\	8.dd 8.a 8.f/)	.	16dddLL 16a\	.
.	.	.	16ddd 16a\	.
.	.	.	16eee 16a\	.
16EKL 16EE\	(16eeKL 16e\	<	16eeeJJ 16a\	.
8F 8FF\	8ff 8f\	.	16fffnLL 16a\	.
.	.	.	16fff 16a\	.
8GJ 8GG\	8ggJ 8g\	.	16ggg 16a\	.
.	.	.	16gggJJ 16a\	.
=118	=118	=118	=118	=118
4A 4AA\	4aa 4a\	.	16ggg#XLL 16a\	.
.	.	[	16ggg# 16a\	.
.	.	.	16aaa 16a\	.
.	.	.	16aaaJJ 16a\	.
4AA 4AAA/	8.eL 8.c#X 8.A 8.G/	.	16bbbnLL 16a\	.
.	.	.	16bbb 16a\	.
.	.	.	16cccc#X 16a\	.
.	16f/Jk	.	16cccc#JJ 16a\	.
=119	=119	=119	=119	=119
4AA 4DD/	4d 4A 4F/)	f	4dddd 4a 4d\	f
*kcancel	*kcancel	*	*kcancel	*
8.r;	8.r;	.	8.r;	.
!!LO:PB:g=original
=||	=||	=||	=||	=||
!!!OMD: Poco più vivo.
*k[f#c#]	*k[f#c#]	*	*k[f#c#]	*
16r	(>16A/	p	16r	.
=120||	=120||	=120||	=120||	=120||
4D 4DD/	8.f#L 8.d/)	.	2r	.
.	(>16A/Jk	.	.	.
4r	8.f#L 8.d/)	.	.	.
!	!LO:TX:a:i:t=simile	!	!	!
.	16A/Jk	.	.	.
=121	=121	=121	=121	=121
2r	8.f#L 8.d/	.	4r	.
.	16A/Jk	.	.	.
.	8.f#L 8.d/	.	8.r	.
.	16A/Jk	.	16a/	p < [[
=122!|:	=122!|:	=122!|:	=122!|:	=122!|:
4D 4DD/	8.f#L 8.d/	.	4.aa\	>
.	16A/Jk	.	.	.
4r	8.f#L 8.d/	.	.	]
.	.	.	(16bb'\LL	<
.	16A/Jk	.	16ccc#'\JJ	.
=123	=123	=123	=123	=123
2r	8.f#L 8.d/	.	16ddd'\LL	.
.	.	.	16eee'\	[
.	.	.	16fff#'\	.
.	16A/Jk	.	16eee'\JJ	.
.	8.f#L 8.d/	.	16ddd'\LL	.
.	.	.	16ccc#'\	.
.	.	.	16bb'\	.
.	16A/Jk	.	16aa'\JJ	.
=124	=124	=124	=124	=124
4D 4DD/	8.f#L 8.d/	.	16gg#X'\LL	.
.	.	.	16aa'\	.
.	.	.	16ddd'\	.
.	16A/Jk	.	16ccc#'\JJ	.
4r	8.f#L 8.d/	.	16bb'\LL	.
.	.	.	16aa'\	.
.	.	.	16ggn'\	.
.	16A/Jk	.	16ff#'\JJ	.
=125	=125	=125	=125	=125
2r	8.f#L 8.d/	.	(4ee#X\	>
.	16A/Jk	.	.	.
.	8.f#L 8.d/	.	8.ff#\L)	]
.	16A/Jk	.	16a\Jk)	< [[
!!LO:LB:g=original
=126	=126	=126	=126	=126
4D 4DD/	8.f#L 8.d/	.	4.ff#\	>
.	16A/Jk	.	.	.
4r	8.f#L 8.d/	.	.	]
.	.	.	(16gg'\LL	<
.	16A/Jk	.	16aa'\JJ	.
=127	=127	=127	=127	=127
2r	8.f#L 8.d/	.	16bb'\LL	.
.	.	.	16ccc#'\	[
.	.	.	16ddd'\	.
.	16A/Jk	.	16ccc#'\JJ	.
.	8.f#L 8.d/	.	16bb'\LL	.
.	.	.	16aa'\	.
.	.	.	16gg#X'\	.
.	16A/Jk	.	16aa'\JJ	.
=128	=128	=128	=128	=128
4D 4DD/	8.f#L 8.d/	.	16bb'\LL	.
.	.	.	16aa'\	.
.	.	.	16ggn'\	.
.	16A/Jk	.	16ff#'\JJ	.
4r	8.f#L 8.d/	.	16ee'\LL	.
.	.	.	16dd'\	.
.	.	.	16cc#'\	.
.	16A/Jk	.	16dd'\JJ	.
=129	=129	=129	=129	=129
4AA 4AAA/	8.f#L 8.cn/	.	4dd#X\	>
.	16A/Jk	.	.	.
4r	8.gL 8.c#X/	.	8.ee\L	]
!	!	!	!	!LO:DY:rj
.	16A/Jk	.	16a\Jk)	mp < [[
=130	=130	=130	=130	=130
4D 4DD/	8.f#L 8.d/	.	4.aa\	>
.	16A/Jk	.	.	.
4r	8.f#L 8.d/	.	.	]
.	.	.	(16bb'\LL	<
.	16A/Jk	.	16ccc#'\JJ	.
=131	=131	=131	=131	=131
2r	8.f#L 8.d/	.	16ddd'\LL	.
.	.	.	16eee'\	[
.	.	.	16fff#'\	.
.	16A/Jk	.	16eee'\JJ	.
.	8.f#L 8.d/	.	16ddd'\LL	.
.	.	.	16ccc#'\	.
.	.	.	16bb'\	.
.	16A/Jk	.	16aa'\JJ	.
=132	=132	=132	=132	=132
4D 4DD/	8.f#L 8.d/	.	16gg#X'\LL	.
.	.	.	16aa'\	.
.	.	.	16ddd'\	.
.	16A/Jk	.	16ccc#'\JJ	.
4r	8.f#L 8.d/	.	16bb'\LL	.
.	.	.	16aa'\	.
.	.	.	16ggn'\	.
.	16A/Jk	.	16ff#'\JJ	.
!!LO:LB:g=original
=133	=133	=133	=133	=133
2r	8.f#L 8.d/	.	(4ee#X\	>
.	16A/Jk	.	.	.
.	8.f#L 8.d/	.	8ff#\L))	]
.	.	.	(8ff#\J	<
.	16F#/Jk	.	.	.
=134	=134	=134	=134	=134
4FF# 4FFF#/	8.f#L 8.e 8.A#X/	.	8aa#X\L	.
.	.	.	8ccc#\)	.
.	16F#/Jk	.	.	.
4r	8.f#L 8.e 8.A#/	.	8fff#'\	.
.	.	.	8eee'\J	.
.	16F#/Jk	.	.	.
=135	=135	=135	=135	=135
4BB 4BBB/	8.f#L 8.d 8.B/	.	(8dddM\L	.
.	.	.	16ccc#\L	.
.	16F#/Jk	.	16ddd\JJ)	[
4D 4DD/	8.fnL 8.B/	.	[4bbb\	>
.	16Fn/Jk	.	.	.
=136	=136	=136	=136	=136
4EE;/	4e 4d 4G#X 4E;/	.	4bbb;\]	]
*	*	*	*Xtuplet	*
*	*	*	*rscale:2	*
4r;	4r;	.	(112bbb'\LLLL	.
.	.	.	112aaa#X'\	.
.	.	.	112aaan'\	.
.	.	.	112ggg#X'\	.
.	.	.	112gggn'\	.
.	.	.	112fff#'\	.
.	.	.	112fffn'\	.
.	.	.	112eee'\	.
.	.	.	112ddd#X'\	.
.	.	.	112dddn'\	.
.	.	.	112ccc#X'\	.
.	.	.	112cccn'\	.
.	.	.	112bb'\	.
.	.	.	112aa'\	.
.	.	.	112gg#X'\	.
.	.	.	112ff#X'\	.
.	.	.	112ee'\	.
.	.	.	112dd'\	.
.	.	.	112cc#X'\	.
.	.	.	112b'\	.
.	.	.	112a'\	.
.	.	.	112g#X'\	.
.	.	.	112f#'\	.
.	.	.	112e'\	.
.	.	.	112d'\	.
.	.	.	112c#'\	.
.	.	.	112B'\	.
.	.	.	112A'\JJJJ)	.
*	*	*	*rscale:1	*
!!LO:LB:g=original
=137	=137	=137	=137	=137
*	*	*	*tuplet	*
!	!	!	!LO:TUP:b	!
4r	4r	.	12G#X^/L	>
.	.	.	12f#^/	.
.	.	.	12e^/J	.
!	!	!	!LO:TUP:b	!
4E 4EE/	(>4g#X 4d 4G#X'>/	.	12d^M/L	.
.	.	.	12c#^/	.
.	.	.	12B^/J	]]
=138	=138	=138	=138	=138
4AA 4AAA/	4a 4c# 4A/)	.	4A/	.
!!LO:REH:t=M
4r	4r	.	8r	.
.	.	.	8a/	p
=139	=139	=139	=139	=139
!	!LO:TX:b:i:t=tranquillo	!	!LO:TX:b:i:t=tranquillo	!
[2AA [2AAA/	8.gnL 8.c#/	.	8ee\L	<
.	.	.	16a\L	.
.	16A/Jk	.	16ee\JJ	.
.	8.f#L 8.d#X 8.cn/	.	8dd#X\L	.
.	.	.	16a\L	.
.	16A/Jk	.	16dd#\JJ	[
=140	=140	=140	=140	=140
2AA] 2AAA/]	8.gL 8.c#X/	.	([4ee\	>
.	16A/Jk	.	.	.
.	8.gL 8.c#/	.	16ee\LL]	.
.	.	.	16cc#\)	] <
.	.	.	16a'\	.
.	16A/Jk	.	16b'\JJ	.
=141	=141	=141	=141	=141
[2AA [2AAA/	8.gL 8.c#/	.	16cc#\LL	.
.	.	.	16dd\	.
.	.	.	16ee\	.
.	16A/Jk	.	16ff#\JJ	.
.	8.gL 8.c#/	.	16gg\LL	.
.	.	.	16aa\	.
.	.	.	(16.bb~\	.
.	16A/Jk	.	.	.
.	.	.	32bb'\JJk)	[[
=142	=142	=142	=142	=142
2AA] 2AAA/]	8.g#XL 8.fn 8.d/	.	4bb\	>
.	16A/Jk	.	.	]
.	8.aL 8.f#X 8.d/	.	(8.aa\L	<
.	16A/Jk	.	16a\Jk)	.
!!LO:PB:g=original
=143	=143	=143	=143	=143
[2AA [2AAA/	8.aL 8.f# 8.d/	.	8ff#\L	.
.	.	.	16a\L	.
.	16A/Jk	.	16ff#\JJ	.
.	8.g#XL 8.fn 8.d/	.	8ee#X\L	.
.	.	.	16a\L	.
.	16A/Jk	.	16ee#\JJ	[[
=144	=144	=144	=144	=144
2AA] 2AAA/]	8.aL 8.f#X 8.d/	.	([4ff#\	>
.	16A/Jk	.	.	.
.	8.aL 8.f# 8.d/	.	16ff#\LL]	.
.	.	.	16dd\)	] <
.	.	.	16a'\	.
.	16A/Jk	.	16b'\JJ	.
=145	=145	=145	=145	=145
[2AA [2AAA/	8.aL 8.f# 8.d/	.	16cc#\LL	.
.	.	.	16dd\	.
.	.	.	16ee\	.
.	16A/Jk	.	16ff#\JJ	.
.	8.aL 8.f# 8.d/	.	16gg\LL	.
.	.	.	16aa\	.
.	.	.	(16.bb~\	.
.	16A/Jk	.	.	.
.	.	.	32bb'\JJk)	[[
=146	=146	=146	=146	=146
2AA] 2AAA/]	8.aL 8.f# 8.d/	.	4bb\	>
.	16A/Jk	.	.	]
.	8.aL 8.f# 8.d/	.	(8.aa\L	<
.	16A/Jk	<	16a\Jk)	.
=147	=147	=147	=147	=147
[2AA [2AAA/	8.aL 8.g 8.c#/	.	8gg\L	.
.	.	.	16a\L	.
.	16A/Jk	.	16gg\JJ	.
.	8.aL 8.f# 8.d#X 8.cn/	.	8ff#\L	.
.	.	.	16a\L	.
.	16A/Jk	.	16ff#\JJ	.
=148	=148	=148	=148	=148
!!LO:TX:t=1.
*>A1	*>A1	*>A1	*>A1	*>A1
4AA] 4AAA/]	4a 4g 4c#X 4A/	[	(20gg\LL	.
.	.	.	20aa\	.
.	.	.	20gg\	.
.	.	.	20ff#\	.
.	.	.	20gg\JJ)	.
[4A\	4r	.	[4eee\	[
!!LO:LB:g=original
=149	=149	=149	=149	=149
2A\_<	(4gg\	.	4eee\]	.
.	4ff#\	.	4ddd\	.
=150	=150	=150	=150	=150
*^	*	*	*	*
4c#/	2A\_	4ee\	.	4ccc#\	.
4d 4B/	.	4dd\	.	4bb\	.
=151	=151	=151	=151	=151	=151
4e 4c#/	2A\_	4cc#\	>	(4aa\	>
4fn 4d/	.	4b\	.	4gg#X\)	.
*v	*v	*	*	*	*
=152	=152	=152	=152	=152
2e 2A\_	2b-X 2g/	.	(2ggn\	.
=153	=153	=153	=153	=153
2A\]	2dd 2b-X 2g\	.	2ee\	.
=154	=154	=154	=154	=154
[2AA [2AAA/	8.cc#L 8.a 8.g/	.	4cc#\)	.
.	16A/Jk	] p	.	]
!	!LO:TX:b:i:t=rit.	!	!LO:TX:b:i:t=rit.	!
.	8.aL 8.g 8.e/	.	4r	.
.	16A/Jk	.	.	.
=155	=155	=155	=155	=155
2AA] 2AAA/]	8.aL 8.f# 8.d/	.	4r	.
.	16A/Jk	.	.	.
.	8.aL 8.g 8.c#/	.	8.r	.
.	16A/Jk)	.	16a/	p < [[
=156:|!	=156:|!	=156:|!	=156:|!	=156:|!
!!LO:TX:t=2.
*>A2	*>A2	*>A2	*>A2	*>A2
!LO:TX:t=P:problem:zakończenie ligatury sprzed volty	!LO:TX:b:t=P:problem:dalsza część crescenda, nie ma początku w tym takcie	!	!LO:TX:b:t=P:problem:dalsza część crescenda, nie ma początku w tym takcie	!
4AA 4AAA/	4a 4g 4c#X 4A/	<	(20gg\LL	<
.	.	[	20aa\	.
.	.	.	20gg\	.
.	.	.	20ff#\	.
.	.	.	20gg\JJ)	.
4r	4r	.	[4eee\	.
!!LO:LB:g=original
=157	=157	=157	=157	=157
!!!OMD: Presto.
*>B	*>B	*>B	*>B	*>B
!	!	!	!LO:TX:b:i:t=Cadenza.	!
1ryyyy	1ryyyy	.	32eee\LLL]	[
.	.	.	(32ddd#X\	.
.	.	.	32fff#\	.
.	.	.	32eee\J	.
.	.	.	32ggg\L	.
.	.	.	32fff#\	.
.	.	.	32eee\	.
.	.	.	32dddn\JJJ	.
.	.	.	32ccc#\LLL	.
.	.	.	32bb#X\	.
.	.	.	32ddd\	.
.	.	.	32ccc#\J	.
.	.	.	32eee\L	.
.	.	.	32ddd\	.
.	.	.	32ccc#\	.
.	.	.	32bbn\JJJ	.
.	.	.	32aa\LLL)	.
.	.	.	(32gg#X\	.
.	.	.	32bb\	.
.	.	.	32aa\J	.
.	.	.	32ggn\L	.
.	.	.	32ff#\	.
.	.	.	32ee\	.
.	.	.	32dd\JJJ	.
!	!	!	!	!LO:HP:b
.	.	.	32cc#\LLL	>
.	.	.	32ee\	.
.	.	.	32gg\	.
.	.	.	32ff#\J	.
.	.	.	32ee\L	.
.	.	.	32dd\	.
.	.	.	32cc#\	.
.	.	.	32b\JJJ	.
1r;	1r;	.	32a\LLL)	.
!	!	!	!	!LO:HP:b
.	.	.	(32dd#X\	] <
.	.	.	32ff#\	.
.	.	.	32ee\J	.
.	.	.	32gg\L	.
.	.	.	32ff#\	.
.	.	.	32ee\	.
.	.	.	32ddn\JJJ	.
.	.	.	32cc#\LLL	.
.	.	.	32b#X\	.
.	.	.	32dd\	.
.	.	.	32cc#\J	.
.	.	.	32ee\L	.
.	.	.	32dd\	.
.	.	.	32cc#\	.
.	.	.	32bn\JJJ	.
.	.	.	32a/LLL)	.
.	.	.	(32g#X/	.
.	.	.	32b/	.
.	.	.	32a/J	.
.	.	.	32gn/L	.
.	.	.	32f#/	.
.	.	.	32e/	.
.	.	.	32d/JJJ	.
.	.	.	32c#/LLL	.
.	.	.	32e/	.
.	.	.	32g/	.
.	.	.	32f#/J	.
.	.	.	32e/L	.
.	.	.	32d/	.
.	.	.	32c#/	.
.	.	.	32B/JJJ)	.
!	!	!	!	!LO:DY:b:t=f
4ryyyy	4ryyyy	.	([8A;/L	f
.	.	.	32A/LL]	.
.	.	.	32e/) 32a	.
.	.	.	32cc#`/	.
.	.	.	32a`/JJJ	.
!!LO:LB:g=original
=158	=158	=158	=158	=158
!	!	!	!LO:TX:b:i:t=largamente	!
4r;	4r;	.	32dd`\LLL	.
.	.	.	32a`\	.
.	.	.	32ee`\	.
.	.	.	32a`\J	.
.	.	.	32ff#`\L	.
.	.	.	32a`\	.
.	.	.	32gg`\	.
.	.	.	32a`\JJJ	.
!	!	!	!LO:TX:a:i:t=segue	!
2.ryyyy	2.ryyyy	.	32aa\LLL	.
.	.	.	32a\	.
.	.	.	32aa\	.
.	.	.	32a\J	.
.	.	.	32bb\L	.
.	.	.	32a\	.
.	.	.	32ccc#\	.
.	.	.	32a\JJJ	.
.	.	.	32ddd\LLL	.
.	.	.	32a\	.
.	.	.	32eee\	.
.	.	.	32a\J	.
.	.	.	32fff#\L	.
.	.	.	32a\	.
.	.	.	32ggg\	.
.	.	.	32a\JJJ	.
.	.	.	32aaa\LLL	.
.	.	.	32a\	.
.	.	.	32bbb\	.
.	.	.	32a\J	.
.	.	.	32cccc#\L	.
.	.	.	32a\	.
.	.	.	32dddd\	.
.	.	.	32a\JJJ	.
1ryyyy	1ryyyy	.	32eeee\LLL	.
.	.	.	32a\	.
.	.	.	32ffff#\	.
.	.	.	32a\J	.
.	.	.	32gggg#X\L	.
.	.	.	32a\	.
.	.	.	(32aaaa\	.
.	.	.	32a\JJJ)	.
!	!	!	!	!LO:HP:b
.	.	.	(32A/LLL	<
.	.	.	32c#/	.
.	.	.	32e/	.
.	.	.	32a/J	.
.	.	.	32cc#/L	.
.	.	.	32a/	.
.	.	.	32e/	.
.	.	.	32c#/JJJ	.
!	!	!	!LO:TUP:r=8	!
.	.	.	40A/LLL	.
.	.	.	40c#/	.
.	.	.	40e/	.
.	.	.	40a/	.
.	.	.	40cc#/J	[
!	!	!	!	!LO:HP:b
.	.	.	40ee/L	>
.	.	.	40cc#/	.
.	.	.	40a/	.
.	.	.	40e/	.
.	.	.	40c#/JJJ)	.
.	.	.	(<4AT/	]
.	.	.	16qqG#X/LL	.
.	.	.	16qqA/JJ	.
2ryyyy	2ryyyy	.	32c#\LLL	.
.	.	.	32e\	.
.	.	.	32a\	.
.	.	.	32cc#\J	.
.	.	.	32ee\L	.
.	.	.	32aa\	.
.	.	.	32ccc#\	.
.	.	.	32eee\JJJ)	.
*kcancel	*kcancel	*	*kcancel	*
!	!	!	!	!LO:DY:b
.	.	.	4aaa;\	p
8.r	8.r	.	8.r	.
!!LO:PB:g=original
=||	=||	=||	=||	=||
!!!OMD: Poco Andante.
*k[b-]	*k[b-]	*	*k[b-]	*
16r	(>>16a/	mp	16r	.
=159	=159	=159	=159	=159
*	*^	*	*	*
2G 2AA/	4b-^/	2c#X\	.	2r	.
.	8.a/L	.	.	.	.
.	16a/Jk	.	.	.	.
=160	=160	=160	=160	=160	=160
2F 2AA/	4b-^/	2d\	.	2r	.
.	8.a/L	.	.	.	.
.	16a/Jk	.	.	.	.
=161	=161	=161	=161	=161	=161
*^	*	*	*	*	*
4E/	2AA\	2b- 2g/	4c#X\	>	2r	.
4D/	.	.	4d\	.	.	.
*v	*v	*	*	*	*	*
*	*v	*v	*	*	*
=162	=162	=162	=162	=162
2C#X 2AA/	2a 2g 2e/)	.	4r	.
.	.	]	8r	.
!!LO:REH:t=N
!!!OMD: Allegro giojoso.
.	.	.	(8a/	p
=163	=163	=163	=163	=163
[2AA [2AAA/	2r	sf	8bb-^\L)	.
.	.	.	(16aa\L	.
.	.	.	16a\JJ	.
.	.	.	8aa^\L)	.
.	.	.	(16gg#X\L	.
.	.	.	16a\JJ	.
=164	=164	=164	=164	=164
2AA_ 2AAA/_	2r	.	8ggn^\L)	.
.	.	.	(16ff#X\L	.
.	.	.	16a\JJ	.
.	.	.	8ffn^\L)	.
.	.	.	(16ee\L	<
.	.	.	16a\JJ	.
!!LO:LB:g=original
=165	=165	=165	=165	=165
2AA_ 2AAA/_	4r	.	16ddM\LL	.
.	.	.	16cc#X\	.
.	.	.	16dd\	.
.	.	.	16ee\JJ	.
.	((>>4g#X 4f [4d/	<[	8ff\L)	.
.	.	.	(16ee\L	.
.	.	.	16dd\JJ)	[
=166	=166	=166	=166	=166
*	*^	*	*	*
2AA] 2AAA/]	2a 2e/)	4d\]	>	(4dd\	>
.	.	4c#X\)	]]	4cc#X\)	]]
*	*v	*v	*	*	*
=167	=167	=167	=167	=167
!	!LO:TX:t=P:problem:mixed beam	!	!	!
2ryy	8Gn</L	f	((16b-\LL	f <
.	.	.	16cc#X\	.
.	8b- 8e 8c#X\	.	16ee\)	.
.	.	.	16bb-'\JJ)	[
.	8F</	.	(8bb-\L	>
.	8aJ 8d 8A\	.	8aa\J)	]]
=168	=168	=168	=168	=168
!	!LO:TX:t=P:problem:mixed beam	!	!	!
2ryy	8E</L	p	((16b-\LL	p <
.	.	.	16cc#X\	.
.	8gn 8c#X 8A\	.	16ee\)	.
.	.	.	16gg'\JJ)	[
.	8D</	.	(8gg\L	>
.	8fJ 8d 8A\	.	8ff\J)	]]
=169	=169	=169	=169	=169
!	!LO:TX:t=P:problem:mixed beam	!	!	!
2ryy	8G</L	f	((16b-\LL	f <
.	.	.	16cc#X\	.
.	8b- 8e 8c#X\	.	16ee\)	.
.	.	.	16bb-'\JJ)	[
.	8F</	.	(8bb-\L	>
.	8aJ 8d 8A\	.	8aa\J)	]]
!!LO:LB:g=original
=170	=170	=170	=170	=170
!	!LO:TX:t=P:problem:mixed beam	!	!	!
2ryy	8E</L	p	((16b-\LL	p <
.	.	.	16cc#X\	.
.	8g 8c#X 8A\	.	16ee\)	.
.	.	.	16gg'\JJ)	[
.	8D</	.	(8gg\L	>
.	8fJ 8d 8A\	.	8ff\J	]]
=171	=171	=171	=171	=171
8BB- 8BBB-/	8f 8d 8B- 8F/	f <	8ddd^\)	f
4BB- 4BBB-/	4f 4d 4B- 4F/	.	4ddd^\	<
8BB- 8BBB-/	8f 8d 8B- 8F/	.	[8ddd^\L	.
=172	=172	=172	=172	=172
8AA 8AAA/	8f 8d 8A 8F/	.	8ddd\J]	.
4AA 4AAA/	4f 4d 4A 4F/	.	4ddd^\	.
8AA 8AAA/	8f 8d 8A 8F/	[[	8ddd^\	[[
=173	=173	=173	=173	=173
!	!LO:TX:t=P:problem:mixed beam	!	!	!
2ryy	8GG<L 8GGG</	>	(16ddd\LL	>
.	.	.	16bb-\)	.
.	8e 8d 8B-\	.	16gg'\	.
.	.	.	16ee'\JJ	.
.	8AA< 8AAA</	.	8.dd\L	.
.	8fJ 8d 8A\	]]	.	]
.	.	.	16dd\Jk	p
=174	=174	=174	=174	=174
!	!LO:TX:t=P:problem:mixed beam	!	!	!
2ryy	8AA<L 8AAA</	p	(16cc#X\LL	<
.	.	.	16dd\	.
.	8e 8c#X 8A 8G\	.	16ee\)	.
.	.	.	16gg'\JJ	[
.	8DD< 8DDD</	.	(8gg\L	>
.	8fJ 8d 8A 8F\	.	8ff\J	]]
!!LO:LB:g=original
=175	=175	=175	=175	=175
8BB- 8BBB-/	8f 8d 8B- 8F/	f <	8ddd^\)	f
4BB- 4BBB-/	4f 4d 4B- 4F/	.	4ddd^\	<
[8BB-L [8BBB-/	[8f#XL [8d [8B- [8F#X/	.	[8ddd^\	.
=176	=176	=176	=176	=176
8BB-]J 8BBB-/]	8f#]J 8d] 8B-] 8F#/]	.	8ddd\L]	.
4BB- 4BBB-/	4g 4d 4B- 4G/	.	8ddd^\	.
.	.	.	8ddd^\	.
8BB- 8BBB-/	8g#X 8d 8B- 8G#X/	.	8ddd^\J	.
=177	=177	=177	=177	=177
8BB- 8BBB-/	8g#X 8d 8B- 8G#X/	.	(16dddM\LL	.
.	.	[	16ccc#X\	.
8r	8r	.	16ddd\	.
.	.	.	16eee\JJ	.
4r	4r	.	8fff\L)	.
.	.	.	((<<8gg#Xt\J	[
.	.	.	16qqff##X/LL	.
.	.	.	16qqgg#/JJ)	.
=178	=178	=178	=178	=178
8r	8r	.	8aa\L)	>
8AAL 8AAA/	8cc#XL 8a 8gn'>/	>	((<<8cc#Xt\J	.
.	.	.	16qqbn/LL	.
.	.	.	16qqcc#/)JJ	.
8DDJ 8DDD/	8ddJ 8a 8f'>/	]	8dd\)	]
8r	8r	.	8r	.
!!LO:REH:t=O
=179	=179	=179	=179	=179
.	.	.	(>>(16qqd/LL	p
.	.	.	16qqa/	.
.	.	.	16qqff/JJ)	.
4.D 4.DD/	16r	p	8aa^\L	.
.	(>16A/LL	.	.	.
.	.	.	(8qccc/	.
.	16d/	.	8bb-\J))	>
.	16f/JJ	.	.	.
.	4a^>/)	.	4aa~\	]]
(8AA 8AAA'/	.	.	.	.
!!LO:PB:g=original
=180	=180	=180	=180	=180
.	.	.	(>>(16qqd/LL	.
.	.	.	16qqa/JJ	.
4.D 4.DD/)	16r	.	8ff^\L)	.
.	(>16A/LL	.	.	.
.	.	.	(8qaa/	.
.	16d/	.	8gg\J))	>
.	16e/JJ	.	.	.
.	4f^>/)	.	4ff~\	]]
(8AA 8AAA'/	.	.	.	.
=181	=181	=181	=181	=181
.	.	.	(>>(16qqd/LL	.
.	.	.	16qqa/	.
.	.	.	16qqff/JJ	.
4.D 4.DD/)	16r	.	8aa^\L)	.
.	(>16A/LL	.	.	.
.	.	.	(8qccc/	.
.	16d/	.	8bb-\J))	>
.	16f/JJ	.	.	.
.	4a^>/)	.	4aa~\	]]
(8AA 8AAA'/	.	.	.	.
=182	=182	=182	=182	=182
.	.	.	(>>(16qqd/LL	.
.	.	.	16qqa/JJ	.
4.D 4.DD/)	16r	.	8ff^\L)	.
.	(>16A/LL	.	.	.
.	.	.	(8qaa/	.
.	16d/	.	8gg\J))	>
.	16e/JJ	.	.	.
.	4f^>/)	.	4ff~\	]]
(<8A'<\	.	.	.	.
=183	=183	=183	=183	=183
.	.	.	(>>(16qqg#X/LL	.
.	.	.	16qqdd/JJ	.
!	!	!LO:HP:t=poco cresc.	!	!LO:HP:t=poco cresc.
4.G#X 4.GG#X/)	16r	<	8ee^\L)	<
.	(16d/LL	.	.	.
.	.	.	(8qggn/	.
.	16e/	.	8ff\J))	>
.	16bn/JJ	.	.	.
.	4ee^\)	.	4ee~\	]]
(<8E'<\	.	.	.	.
!!LO:LB:g=original
=184	=184	=184	=184	=184
.	.	.	(>>(16qqa/LL	.
.	.	.	16qqcc#X/JJ	.
4.A 4.AA\)	16r	.	8ee^\L)	.
.	(16c#X/LL	.	.	.
.	.	.	(8qgg/	.
.	16e/	.	8ff\J))	>
.	16a/JJ	.	.	.
.	4ee^\)	.	4ee~\	]]
(<8E'<\	.	.	.	.
=185	=185	=185	=185	=185
.	.	.	(>>(16qqg#X/LL	.
.	.	.	16qqdd/JJ	.
4.B-X 4.BB-X\)	16r	.	8ee^\L)	.
.	(16d/LL	.	.	.
.	.	.	(8qggn/	.
.	16e/	.	8ff\J))	>
.	16g#X/JJ	.	.	.
.	4ee^\)	.	4ee~\	]]
(<8E'<\	.	.	.	.
=186	=186	=186	=186	=186
.	.	.	(16qqa/LL	.
.	.	.	16qqcc#X/JJ	.
8A 8E 8AA;\)	8a 8gn 8c#X;/	.	8ee;\L)	.
8r;	8r;	.	8bb-;\	>
4r;	4r;	.	8aa;\	.
.	.	.	8gg#X;\J	]]
=187	=187	=187	=187	=187
.	.	.	(>>16qqd/LL	.
.	.	.	16qqa/	.
.	.	.	16qqff/JJ	.
*	*	*	*^	*
4.D 4.DD/	16r	p	8aa~^/L	8a 8d\	p
.	(>16A/LL	.	.	.	.
.	.	.	(8qccc/	.	.
.	16d/	.	8bb-~>/J))	8ryy	>
.	16f/JJ	.	.	.	.
.	4a^>/)	.	4aa~>/	4ryy	]]
(8AA 8AAA'/	.	.	.	.	.
=188	=188	=188	=188	=188	=188
.	.	.	(>>16qqd/LL	.	.
.	.	.	16qqa/JJ	.	.
4.D 4.DD/)	16r	.	8ff~^/L	8a 8d\	.
.	(>16A/LL	.	.	.	.
.	.	.	(8qaa/	.	.
.	16d/	.	8gg~>/J))	8ryy	>
.	16e/JJ	.	.	.	.
.	4f^>/)	.	4ff~>/	4ryy	]]
(8AA 8AAA'/	.	.	.	.	.
!!LO:LB:g=original
=189	=189	=189	=189	=189	=189
.	.	.	(>>16qqd/LL	.	.
.	.	.	16qqa/	.	.
.	.	.	16qqff/JJ	.	.
4.D 4.DD/)	16r	.	8aa~^/L	8a 8d\	.
.	(>16A/LL	.	.	.	.
.	.	.	(8qccc/	.	.
.	16d/	.	8bb-~>/J))	8ryy	>
.	16f/JJ	.	.	.	.
.	4a^>/)	.	4aa~>/	4ryy	]]
(8AA 8AAA'/	.	.	.	.	.
=190	=190	=190	=190	=190	=190
.	.	.	(>>16qqd/LL	.	.
.	.	.	16qqa/JJ	.	.
4.D 4.DD/)	16r	.	8ff~^/L	8a 8d\	.
.	(>16A/LL	.	.	.	.
.	.	.	(8qaa/	.	.
.	16d/	.	8gg~>/J))	8ryy	>
.	16e/JJ	.	.	.	.
.	4f^>/)	.	4ff~>/	4ryy	]]
(<8A'<\	.	.	.	.	.
*	*	*	*v	*v	*
=191	=191	=191	=191	=191
!	!	!	!	!LO:HP:t=poco cresc.
.	.	.	(>>16qqg#X/LL	<
.	.	.	16qqdd/JJ	.
!	!	!LO:HP:t=poco cresc.	!	!
4.G#X 4.GG#X/)	16r	<	8ee'^\L	.
.	(16d/LL	.	.	.
.	.	.	(8qggn/	.
.	16e/	.	8ff\J))	>
.	16bn/JJ	.	.	.
.	4ee^\)	.	4ee~\	]]
(<8E'<\	.	.	.	.
=192	=192	=192	=192	=192
.	.	.	(>>16qqa/LL	.
.	.	.	16qqcc#X/JJ	.
4.A 4.AA\)	16r	.	8ee'^\L	.
.	(16c#X/LL	.	.	.
.	.	.	(8qgg/	.
.	16e/	.	8ff\J))	>
.	16a/JJ	.	.	.
.	4ee^\)	.	4ee~\	]]
(<8E'<\	.	.	.	.
=193	=193	=193	=193	=193
.	.	.	(>>16qqg#X/LL	.
.	.	.	16qqdd/JJ	.
4.B-X 4.BB-X\)	16r	.	8ee'^\L	.
.	(16d/LL	.	.	.
.	.	.	(8qggn/	.
.	16e/	.	8ff\J))	>
.	16g#X/JJ	.	.	.
.	4ee^\)	.	4ee~\	.
(<8E'<\	.	.	.	]
.	.	.	(>16qqa/LL	.
.	.	.	16qqcc#X/	.
.	.	.	16qqee/JJ	.
!!LO:LB:g=original
=194	=194	=194	=194	=194
8A 8E 8AA\)	8a 8gn 8c#X/	.	2aat\)	<
8r	8r	.	.	.
4c#X 4A\	(4aa 4cc#X 4a\	<	.	.
=195	=195	=195	=195	=195
4d 4Bn 4A\	4aa 4dd 4bn 4a\	.	4.aa^<t\	.
4d#X 4B#X 4A\	4aa 4dd#X 4b#X 4a\	.	.	.
.	.	.	8aa^<t\	.
=196	=196	=196	=196	=196
4e 4c#X 4A\	4aa 4ee 4cc#X 4a\	.	8aa^<t\L	.
.	.	.	8aa^<t\	.
8fL 8dn 8A\	8aaL 8ff 8ddn 8a\	.	8aa^<t\	.
8f#XJ 8d#X 8A\	8aaJ 8ff#X 8dd#X 8a\	.	8aa^<t\J	.
=197	=197	=197	=197	=197
4g 4e 4A\	4aa 4gg 4cc#X 4a\)	f	(>>(<<4aa^<t\	f >
.	.	.	8qgg#X/)	.
4r	4r	.	8aa\L)	]
!!LO:REH:t=P
.	.	.	(8a\J	p
=198	=198	=198	=198	=198
[2AA [2AAA/	2r	sf	8bb-^\L)	.
.	.	.	(16aa\L	.
.	.	.	16a\JJ	.
.	.	.	8aa^\L)	.
.	.	.	(16gg#X\L	.
.	.	.	16a\JJ	.
=199	=199	=199	=199	=199
2AA_ 2AAA/_	2r	.	8ggn^\L)	.
.	.	.	(16ff#X\L	.
.	.	.	16a\JJ	.
.	.	.	8ffn^\L)	.
.	.	.	(16ee\L	<
.	.	.	16a\JJ	.
!!LO:LB:g=original
=200	=200	=200	=200	=200
2AA_ 2AAA/_	4r	.	16ddM\LL	.
.	.	.	16cc#X\	.
.	.	.	16dd\	.
.	.	.	16ee\JJ	.
.	((>>4g#X 4f [4d/	<[	8ff\L)	.
.	.	.	(16ee\L	.
.	.	.	16dd\JJ)	[[
=201	=201	=201	=201	=201
*	*^	*	*	*
2AA] 2AAA/]	2a 2e/)	4d\]	>	(4dd\	>
.	.	4c#X\)	]]	4cc#X\)	]]
*	*v	*v	*	*	*
=202	=202	=202	=202	=202
!	!LO:TX:t=P:problem:mixed beam	!	!	!
2ryy	8Gn</L	f	((16b-\LL	f <
.	.	.	16cc#X\	.
.	8b- 8e 8c#X\	.	16ee\)	.
.	.	.	16bb-'\JJ)	[
.	8F</	.	(8bb-\L	>
.	8aJ 8d 8A\	.	8aa\J)	]]
=203	=203	=203	=203	=203
!	!LO:TX:t=P:problem:mixed beam	!	!	!
2ryy	8E</L	p	((16b-\LL	p <
.	.	.	16cc#X\	.
.	8g 8c#X 8A\	.	16ee\)	.
!	!	!	!LO:SIC:s=16gg'JJ)	!
.	.	.	16gg\JJ)	[
.	8D</	.	(8gg\L	>
.	8fJ 8d 8A\	.	8ff\J)	]]
=204	=204	=204	=204	=204
!	!LO:TX:t=P:problem:mixed beam	!	!	!
2ryy	8G</L	f	((16b-\LL	f <
.	.	.	16cc#X\	.
.	8b- 8e 8c#X\	.	16ee\)	.
.	.	.	16bb-'\JJ)	[
.	8F</	.	(8bb-\L	>
.	8aJ 8d 8A\	.	8aa\J)	]]
=205	=205	=205	=205	=205
!	!LO:TX:t=P:problem:mixed beam	!	!	!
2ryy	8E</L	p	((16b-\LL	p <
.	.	.	16cc#X\	.
.	8g 8c#X 8A\	.	16ee\)	.
.	.	.	16gg'\JJ)	[
.	8D</	.	(8gg\L	>
.	8fJ 8d 8A\	.	8ff\J	]]
=206	=206	=206	=206	=206
8BB- 8BBB-/	8f 8d 8B- 8F/	f <	8ddd^\)	f <
4BB- 4BBB-/	4f 4d 4B- 4F/	.	4ddd^\	.
8BB- 8BBB-/	8f 8d 8B- 8F/	.	[8dddL^\	.
!!LO:LB:g=original
=207	=207	=207	=207	=207
8AA 8AAA/	8f 8d 8A 8F/	.	8dddJ\]	.
4AA 4AAA/	4f 4d 4A 4F/	.	4ddd^\	.
8AA 8AAA/	8f 8d 8A 8F/	[	8ddd^\	[
=208	=208	=208	=208	=208
!	!LO:TX:t=P:problem:mixed beam	!	!	!
2ryy	8GG<L 8GGG</	>	(16ddd\LL	>
.	.	.	16bb-\)	.
.	8e 8d 8B-\	.	16gg'\	.
.	.	.	16ee'\JJ	.
.	8AA< 8AAA</	.	8.dd\L	.
.	8fJ 8d 8A\	]]	.	]
.	.	.	16dd\Jk	p
=209	=209	=209	=209	=209
!	!LO:TX:t=P:problem:mixed beam	!	!	!
2ryy	8AA<L 8AAA</	p	(16cc#X\LL	<
.	.	.	16dd\	.
.	8e 8c#X 8A 8G\	.	16ee\)	.
.	.	.	16gg'\JJ	[
.	8DD< 8DDD</	.	(8gg\L	>
.	8fJ 8d 8A 8F\	.	8ff\J	]]
=210	=210	=210	=210	=210
8BB- 8BBB-/	8f 8d 8B- 8F/	f	8ddd^\)	f
4BB- 4BBB-/	4f 4d 4B- 4F/	<	4ddd^\	<
[8BB-L [8BBB-/	[8f#XL [8d [8B- [8F#X/	.	[8ddd^\	.
=211	=211	=211	=211	=211
8BB-]J 8BBB-/]	8f#]J 8d] 8B-] 8F#/]	.	8ddd\L]	.
4BB- 4BBB-/	4g 4d 4B- 4G/	.	8ddd^\	.
.	.	.	8ddd^\	.
8BB- 8BBB-/	8g#X 8d 8B- 8G#X/	.	8ddd^\J	.
=212	=212	=212	=212	=212
[2BB- [2BBB-/	[2g#X [2d [2B- [2G#X/	.	(16dddM\LL	.
.	.	.	16ccc#X\	.
.	.	.	16ddd\	.
.	.	.	16eee\JJ	.
.	.	.	[4fff\	.
=213	=213	=213	=213	=213
2BB-] 2BBB-/]	2g#] 2d] 2B-] 2G#/]	.	4fff\])	.
.	.	.	(<<4gg#Xt\	.
.	.	.	16qqff##X/LL	.
.	.	.	16qqgg#/JJ)	.
=214	=214	=214	=214	=214
4AA 4AAA/	4a 4f 4d 4A/	.	4aa 4a\	.
[4GG [4GGG/	[4b- [4e [4d [4B-/	.	[4bb- [4b-\	.
!!LO:LB:g=original
=215	=215	=215	=215	=215
4GG] 4GGG/]	4b-] 4e] 4d] 4B-/]	.	4bb-] 4b-\]	.
4AA 4AAA/	4a 4e 4c#X 4G/	.	4aa 4a\	.
!!LO:REH:t=Q
=216	=216	=216	=216	=216
(<<16DD/LL	8aaL 8ff 8dd 8a'\	ff	8d\L	ff
16AA/	.	.	.	.
.	(>8qccc 8qcc/	.	.	.
16D/	8bb-J 8b-'\)	>	16dddL 16ff`\	.
16F/JJ	.	.	16dddJJ 16ff`\	.
8A\)	4aa 4a\	]	[4d/	.
8AA 8AAA'/	.	.	.	.
=217	=217	=217	=217	=217
4.DD 4.DDD^/	8ffL 8dd 8a 8f'\	.	16d/LL]	.
.	.	.	16c#X/	.
.	(>8qaa 8qa/	.	.	.
.	8ggJ 8g'\)	>	16d/	.
.	.	.	16e/JJ	.
.	4ff 4f\	]	16f/LL	.
.	.	.	16c#/	.
8AA 8AAA/	.	.	16e/	.
.	.	.	(<<16d/JJ	.
=218	=218	=218	=218	=218
(<<16DD/LL	8aaL 8ff 8dd 8a'\	.	8A\L)	.
16AA/	.	.	.	.
!	!LO:S:s=1:note:problem:note-level slur	!	!	!
.	(8qccc 8qcc/	.	.	.
16D/	8bb-J) 8b-'\	>	16dddL 16ff`\	.
16F/JJ	.	.	16dddJJ 16ff`\	.
8A\)	4aa 4a^\	]	[4d/	.
8AA 8AAA'/	.	.	.	.
=219	=219	=219	=219	=219
4.DD 4.DDD^/	8ffL 8dd 8a 8f'\	.	16d/LL]	.
.	.	.	16c#X/	.
!	!LO:S:s=1:note:problem:note-level slur	!	!	!
.	(8qaa 8qa/	.	.	.
.	8ggJ) 8g'\	>	16d/	.
.	.	.	16e/JJ	.
.	4ff 4f\	]	16f/LL	.
.	.	.	16c#/	.
8F 8FF'/	.	.	16e/	.
.	.	.	16d/JJ	.
=220	=220	=220	=220	=220
4.B- 4.D 4.GG^<\	8eeL 8e'\	.	(16dLL 16G/	.
.	.	.	16bb- 16b-/)	.
!	!LO:S:s=1:note:problem:note-level slur	!	!	!
.	(8qgg 8qg/	.	.	.
.	8ffJ) 8f'\	>	16bb- 16b-`/	.
.	.	.	16bb-JJ 16b-`/	.
.	4ee 4e/	]	(16bb-LL 16b-/	.
.	.	.	16d 16G/)	.
8B- 8D 8GG'<\	.	.	16d 16G`/	.
.	.	.	16dJJ 16G`/	.
!!LO:LB:g=original
=221	=221	=221	=221	=221
4.Bn 4.D 4.GG#X^<\	8eeL 8e'\	.	(16eLL 16G#X/	.
.	.	.	16bbn 16dd/)	.
!	!LO:S:s=1:note:problem:note-level slur	!	!	!
.	(8qgg 8qg/	.	.	.
.	8ffJ) 8f'\	>	16bb 16dd`/	.
.	.	.	16bbJJ 16dd`/	.
.	4ee 4e/	]	(16bbLL 16dd/	.
.	.	.	16e 16G#/)	.
8B 8D 8GG#'<\	.	.	16e 16G#`/	.
.	.	.	16eJJ 16G#`/	.
=222	=222	=222	=222	=222
4.A 4.E 4.D 4.AA^<\	8eeL 8e'\	.	(16eLL 16A/	.
.	.	.	16aa 16dd/)	.
!	!LO:S:s=1:note:problem:note-level slur	!	!	!
.	(8qgg 8qg/	.	.	.
.	8ffJ) 8f'\	>	16aa 16dd`/	.
.	.	.	16aaJJ 16dd`/	.
.	4ee 4e/	] <	(16aaLL 16dd/	.
.	.	.	16e 16A/)	.
8A 8E 8D 8AA'<\	.	.	16e 16A`/	.
.	.	[	16eJJ 16A`/	.
=223	=223	=223	=223	=223
4.A 4.G 4.E 4.C#X 4.AA^<\	4.ee 4.e/	>	(16eLL 16A/	>
.	.	]	16aa 16cc#X/)	.
.	.	.	(16aa 16cc#`/	.
.	.	.	16aaJJ 16cc#`/)	.
.	.	.	(16aaLL 16cc#/	]
.	.	.	16e 16A/)	<
8AA 8AAA/	8aa 8a'\	<	16e 16A`/	.
.	.	[	16eJJ 16A`/	[
=224	=224	=224	=224	=224
(<<16DD/LL	8aaL 8ff 8dd 8a'\	ff	8d\L	ff
16AA/	.	.	.	.
!	!LO:S:s=1:note:problem:note-level slur	!	!	!
.	(8qccc 8qcc/	.	.	.
16D/	8bb-J) 8b-'\	>	16dddL 16ff`\	.
16F/JJ	.	.	16dddJJ 16ff`\	.
8A\)	4aa 4a\	]	[4d/	.
8AA 8AAA'/	.	.	.	.
=225	=225	=225	=225	=225
4.DD 4.DDD^/	8ffL 8dd 8a 8f'\	.	16d/LL]	.
.	.	.	16c#X/	.
!	!LO:S:s=1:note:problem:note-level slur	!	!	!
.	(8qaa 8qa/	.	.	.
.	8ggJ) 8g'\	>	16d/	.
.	.	.	16e/JJ	.
.	4ff 4f\	]	16f/LL	.
.	.	.	16c#/	.
8AA 8AAA/	.	.	16e/	.
.	.	.	(<<16d/JJ	.
=226	=226	=226	=226	=226
(<<16DD/LL	8aaL 8ff 8dd 8a'\	.	8A\L)	.
16AA/	.	.	.	.
!	!LO:S:s=1:note:problem:note-level slur	!	!	!
.	(8qccc 8qcc/	.	.	.
16D/	8bb-J) 8b-'\	>	16dddL 16ff`\	.
16F/JJ	.	.	16dddJJ 16ff`\	.
8A\)	4aa 4a\	]	[4d/	.
8AA 8AAA'/	.	.	.	.
!!LO:PB:g=original
=227	=227	=227	=227	=227
4.DD 4.DDD^/	8ffL 8dd 8a 8f'\	.	16d/LL]	.
.	.	.	16c#X/	.
!	!LO:S:s=1:note:problem:note-level slur	!	!	!
.	(8qaa 8qa/	.	.	.
.	8ggJ) 8g'\	>	16d/	.
.	.	.	16e/JJ	.
.	4ff 4f\	]	16f/LL	.
.	.	.	16c#/	.
8F 8FF'/	.	.	16e/	.
.	.	.	16d/JJ	.
=228	=228	=228	=228	=228
4.B- 4.D 4.GG^<\	8eeL 8e'\	.	(16dLL 16G/	.
.	.	.	16bb- 16b-/)	.
!	!LO:S:s=1:note:problem:note-level slur	!	!	!
.	(8qgg 8qg/	.	.	.
.	8ffJ) 8f'\	>	16bb- 16b-`/	.
.	.	.	16bb-JJ 16b-`/	.
.	4ee 4e/	]	(16bb-LL 16b-/	.
.	.	.	16d 16G/)	.
8B- 8D 8GG'<\	.	.	16d 16G`/	.
.	.	.	16dJJ 16G`/	.
=229	=229	=229	=229	=229
4.Bn 4.D 4.GG#X^<\	8eeL 8e'\	.	(16eLL 16G#X/	.
.	.	.	16bbn 16dd/)	.
!	!LO:S:s=1:note:problem:note-level slur	!	!	!
.	(8qgg 8qg/	.	.	.
.	8ffJ) 8f'\	>	16bb 16dd`/	.
.	.	.	16bbJJ 16dd`/	.
.	4ee 4e/	]	(16bbLL 16dd/	.
.	.	.	16e 16G#/)	.
8B 8D 8GG#'<\	.	.	16e 16G#`/	.
.	.	.	16eJJ 16G#`/	.
=230	=230	=230	=230	=230
4.A 4.E 4.D 4.AA^<\	8eeL 8e'\	.	(16eLL 16A/	.
.	.	.	16aa 16dd/)	.
!	!LO:S:s=1:note:problem:note-level slur	!	!	!
.	(8qgg 8qg/	.	.	.
.	8ffJ) 8f'\	>	16aa 16dd`/	.
.	.	.	16aaJJ 16dd`/	.
.	4ee 4e/	]	(16aaLL 16dd/	.
.	.	.	16e 16A/)	.
8A 8E 8D 8AA'<\	.	.	16e 16A`/	.
.	.	.	16eJJ 16A`/	.
=231	=231	=231	=231	=231
4.A 4.G 4.E 4.C#X 4.AA^<\	4.ee 4.e/	.	(16eLL 16A/	.
.	.	.	16aa 16cc#X/)	.
.	.	.	(16aa 16cc#`/	.
.	.	.	16aaJJ 16cc#`/)	.
.	.	.	(16aaLL 16cc#/	.
.	.	.	16e 16A/)	.
8AA 8AAA/	8aa 8ee 8cc#X 8a 8g'\	.	16e 16A`/	.
.	.	.	16eJJ 16A`/	.
!!LO:REH:t=R
=232	=232	=232	=232	=232
4DD 4DDD/	4ddd 4aa 4ff 4dd^\	.	8d\L	.
.	.	.	16dddL 16ff`\	.
.	.	.	16dddJJ 16ff`\	.
4r	8r	.	[4d/	.
.	16ffLL 16dd 16a 16f'\	.	.	.
.	16ffJJ 16dd 16a 16f'\	.	.	.
=233	=233	=233	=233	=233
4D 4AA 4DD^/	4r	.	16d/LL]	.
.	.	.	16c#X/	.
.	.	.	16d/	.
.	.	.	16e/JJ	.
8r	8r	.	16f/LL	.
.	.	.	16c#/	.
8D 8DD/	8f 8d 8A 8F'>/	.	16e/	.
.	.	.	(<<16d/JJ	.
!!LO:LB:g=original
=234	=234	=234	=234	=234
4BB- 4BBB-/	4f 4d 4B- 4F^>/	.	8B-\L)	.
.	.	.	16dddL 16dd`\	.
.	.	.	16dddJJ 16dd`\	.
4r	8r	.	[4d/	.
.	16ffLL 16dd 16b- 16f'\	.	.	.
.	16ffJJ 16dd 16b- 16f'\	.	.	.
=235	=235	=235	=235	=235
4BB- 4FF 4BBB-^/	4r	.	16d/LL]	.
.	.	.	16c#X/	.
.	.	.	16d/	.
.	.	.	16e/JJ	.
8r	8r	.	16f/LL	.
.	.	.	16c#/	.
8BB- 8FF 8BBB-/	8f 8d 8B- 8F'>/	.	16e/	.
.	.	.	(<<16d/JJ	.
=236	=236	=236	=236	=236
4AA 4FF 4AAA/	4f 4d 4A 4F^>/	.	8A\L)	.
.	.	.	16dddL 16ff`\	.
.	.	.	16dddJJ 16ff`\	.
4r	8r	.	[4d/	.
.	16ffLL 16dd 16a 16f'\	.	.	.
.	16ffJJ 16dd 16a 16f'\	.	.	.
=237	=237	=237	=237	=237
4AA 4FF 4AAA^/	4r	.	16d/LL]	.
.	.	.	16c#X/	.
.	.	.	16d/	.
.	.	.	16e/JJ	.
8r	8r	.	16f/LL	.
.	.	.	16c#/	.
8AA 8FF 8AAA/	8f 8d 8A 8F'>/	.	16e/	.
.	.	.	16d/JJ	.
=238	=238	=238	=238	=238
[2GG#X [2FF [2GGG#X/	[2f [2d [2Bn [2F^>/	.	8.bbnL 8.dd 8.fn 8.G#X\	.
.	.	.	16dddJk 16ffn\	.
.	.	.	(16dddLL 16ff\	.
.	.	.	16fff 16gg#X\)	.
.	.	.	(16fff 16gg#\	.
.	.	.	16ggg#XJJ 16bb\)	.
=239	=239	=239	=239	=239
2GG#_ 2FF_ 2GGG#/_	2f_ 2d_ 2B_ 2F/_	.	(16ggg#XLL 16bbn\	.
.	.	.	16bbbn 16ddd\)	.
.	.	.	(16bbb 16ddd\	.
.	.	.	16ggg#JJ 16bb\)	.
.	.	.	(16ggg#LL 16bb\	.
.	.	.	16fff 16gg#X\)	.
.	.	.	(16fff 16gg#\	.
.	.	.	16dddJJ 16ff\)	.
!!LO:LB:g=original
=240	=240	=240	=240	=240
2GG#X_ 2FF_ 2GGG#X/_	2f_ 2d_ 2BnX_ 2F/_	.	(16dddLL 16ff\	.
.	.	.	16bbn 16dd\)	.
.	.	.	(16bb 16dd\	.
.	.	.	16gg#XJJ 16bn\)	.
.	.	.	(16gg#LL 16b\	.
.	.	.	16ff 16g#X\)	.
.	.	.	(16ff 16g#\	.
.	.	.	16ddJJ 16f\)	.
=241	=241	=241	=241	=241
2GG#] 2FF] 2GGG#/]	2f] 2d] 2B] 2F/]	.	(16ddLL 16f/	.
.	.	.	16bn 16d/)	.
.	.	.	(16b 16d/	.
.	.	.	16g#XJJ 16Bn/)	.
.	.	.	(>16g#LL 16B/	.
.	.	.	16f 16G#X/)	.
.	.	.	(>16f 16G#/	.
.	.	.	16dJJ 16G#/)	.
=242	=242	=242	=242	=242
4AA 4FF 4AAA/	4f 4d 4A 4F/	.	(8.A/L	.
.	.	.	16a/Jk)	.
4r	4r	.	(16Bn/LL	.
.	.	.	16bn/)	.
.	.	.	(16c#X/	.
.	.	.	16cc#X/JJ)	.
=243	=243	=243	=243	=243
2r	2r	.	(16d/LL	.
.	.	.	16dd/)	.
.	.	.	(16e/	.
.	.	.	16ee/JJ)	.
.	.	.	(16f\LL	.
.	.	.	16ff\)	.
.	.	.	(16g\	.
.	.	.	16gg\JJ)	.
=244	=244	=244	=244	=244
2r	2r	.	(16g#X\LL	.
.	.	.	16gg#X\)	.
.	.	.	(16a\	.
.	.	.	16aa\JJ)	.
.	.	.	(16bn\LL	.
.	.	.	16bbn\)	.
.	.	.	(16cc#X\	.
.	.	.	16ccc#X\JJ)	.
=245	=245	=245	=245	=245
2r	2r	.	(16dd\LL	.
.	.	.	16ddd\)	.
.	.	.	(16ee\	.
.	.	.	16eee\JJ)	.
.	.	.	(16ff\LL	.
.	.	.	16fff\)	.
.	.	.	(16cc#X\	.
.	.	.	16ccc#X\JJ)	.
!!LO:LB:g=original
=246	=246	=246	=246	=246
2r	2r	.	(16dd\LL	.
.	.	.	16ddd\)	.
.	.	.	(16ee\	.
.	.	.	16eee\JJ)	.
.	.	.	(16ff\LL	.
.	.	.	16fff\)	.
.	.	.	(16gg\	.
.	.	.	16ggg\JJ)	.
=247	=247	=247	=247	=247
2r	2r	.	(16aa\LL	.
.	.	.	16aaa\)	.
.	.	.	(16bbn\	.
.	.	.	16bbbn\JJ)	.
.	.	.	(16ccc#X\LL	.
.	.	.	16cccc#X\)	.
.	.	.	(16ddd\	.
.	.	.	16dddd\JJ)	.
!!LO:REH:t=S
=248	=248	=248	=248	=248
[2G [2GG/	8eL 8d 8B-/	f	2e 2GT/	f
.	8e 8d 8B-/	.	.	.
.	8e 8d 8B-/	.	.	.
.	8eJ 8d 8B-/	.	.	.
=249	=249	=249	=249	=249
2G] 2GG/]	8eL 8d 8B-/	.	4e 4GT/	.
.	8e 8d 8B-/	.	.	.
.	8e 8d 8B-/	.	(32G/LLL	.
.	.	.	32e/	.
.	.	.	32b-/	.
.	.	.	32ee/JJJ)	.
.	8eJ 8d 8B-/	.	(32ee/LLL	.
.	.	.	32b-/	.
.	.	.	32e/	.
.	.	.	32G/JJJ)	.
=250	=250	=250	=250	=250
[2G#X [2GG#X/	8eL 8d 8Bn/	.	2e 2G#Xt/	.
.	8e 8d 8B/	.	.	.
.	8e 8d 8B/	.	.	.
.	8eJ 8d 8B/	.	.	.
=251	=251	=251	=251	=251
2G#] 2GG#/]	8eL 8d 8Bn/	.	4e 4G#Xt/	.
.	8e 8d 8B/	.	.	.
.	8e 8d 8B/	.	(32G#/LLL	.
.	.	.	32e/	.
.	.	.	32bn/	.
.	.	.	32ee/JJJ)	.
.	8eJ 8d 8B/	.	(32ee/LLL	.
.	.	.	32b/	.
.	.	.	32e/	.
.	.	.	32G#/JJJ)	.
!!LO:PB:g=original
=252	=252	=252	=252	=252
4A 4AA\	8r	.	2e 2At/	.
.	8eL 8c#X/	.	.	.
4r	8e 8c#/	.	.	.
.	8eJ 8c#/	.	.	.
=253	=253	=253	=253	=253
4A 4AA\	8r	<	(>4a 4c#Xt/	<
.	8aL 8gn 8c#X/	.	.	.
4r	8a 8g 8c#/	.	4cc#X 4et/)	.
.	8aJ 8g 8c#/	.	.	.
=254	=254	=254	=254	=254
4A 4AA\	8r	.	2ee 2gT\	.
.	8cc#XL 8a 8g 8e/	.	.	.
4r	8cc# 8a 8g 8e/	.	.	.
.	8cc#J 8a 8g 8e/	.	.	.
=255	=255	=255	=255	=255
4A 4AA\	8r	.	2aat\	.
.	8eeL 8cc#X 8a 8g\	.	.	.
4r	8ee 8cc# 8a 8g\	.	.	.
.	8eeJ 8cc# 8a 8g\	.	.	.
=256	=256	=256	=256	=256
4A 4AA\	8r	.	2ccc#Xt\	.
.	8aaL 8gg 8cc#X 8a\	.	.	.
4r	8aa 8gg 8cc# 8a\	.	.	.
.	8aaJ 8gg 8cc# 8a\	.	.	.
=257	=257	=257	=257	=257
4E 4EE/	8r	.	2eeet\	.
.	8aaL 8gg 8cc#X 8a\	.	.	.
4C#X 4CC#X/	8r	.	.	.
.	8aaJ 8gg 8ee 8a\	.	.	.
=258	=258	=258	=258	=258
8AAL 8AAA/	8r	.	[2aaatt\	.
8A 8AA/	8ccc#XL 8aa 8gg 8cc#X\	.	.	.
8G 8GG/	8ccc# 8aa 8gg 8cc#\	.	.	.
8EJ 8EE/	8ccc#J 8aa 8gg 8cc#\	.	.	.
!!LO:LB:g=original
=259	=259	=259	=259	=259
8C#XL 8CC#X/	8ccc#XL 8aa 8gg 8cc#X\	.	(2aaatt\]	.
8AA 8AAA/	8ccc# 8aa 8gg 8cc#\	.	.	.
8GG 8GGG/	8ccc# 8aa 8gg 8cc#\	.	.	.
8EEJ 8EEE/	8ccc#J 8aa 8gg 8cc#\	.	.	.
.	.	.	16qqggg#X/LL)	.
.	.	.	16qqaaa/JJ	.
=260	=260	=260	=260	=260
8DD 8DDD/	4ddd 4aa 4ff 4dd\	ff	4dddd\	ff
!LO:TX::i:t=animato	!	!	!	!
8DL 8DD/	.	<	.	.
!!LO:REH:T
*	*	*	*tremolo	*
!	!	!	!LO:TX:b:i:t=animato	!
!	!	!	!LO:TX:a:t=Tutti.	!
8C#X 8CC#X/	4ee 4a 4g\	.	16a\LL	<
.	.	.	16a\	.
8AAJ 8AAA/	.	.	16aa\	.
.	.	[	16aa\JJ	[
=261	=261	=261	=261	=261
8DL 8DD/	4ff 4a 4f\	>	16ff\LL	>
.	.	.	16ff\	]
8F 8FF/	.	] <	16dd\	<
.	.	.	16dd\	.
8E 8EE/	4ff 4cc 4b-\	.	16cc\	.
.	.	.	16cc\	.
8CJ 8CC/	.	.	16ccc\	.
.	.	[	16ccc\JJ	[
=262	=262	=262	=262	=262
8FL 8FF/	4aa 4cc 4a\	>	16aa\LL	>
.	.	.	16aa\	]
8A 8AA/	.	] <	16ff\	<
.	.	.	16ff\	.
8G#X 8GG#X/	4bbn 4ee 4dd\	.	16ee\	.
.	.	.	16ee\	.
8EJ 8EE/	.	.	16eee\	.
.	.	[	16eee\JJ	[
=263	=263	=263	=263	=263
8A 8AA\	4ccc 4ee 4cc\	>	16ccc\LL	>
.	.	.	16ccc\	]
8AAL 8AAA/	.	] <	16aa\	<
.	.	.	16aa\	.
8GG#X 8GGG#X/	4ccc#X 4aa 4ee 4cc#X\	.	16ccc#X\	.
.	.	.	16ccc#\	.
8GGnJ 8GGGn/	.	.	16aa\	.
.	.	.	16aa\JJ	.
=264	=264	=264	=264	=264
8FFL 8FFF/	8dddL 8aa 8dd\	.	16ddd\LL	.
.	.	.	16ddd\	.
8FF#X 8FFF#X/	8ccc 8aa 8ee-X\	.	16ccc\	.
.	.	.	16ccc\	.
8GG 8GGG/	8bb- 8gg 8dd\	.	16bb-\	.
.	.	.	16bb-\	.
8AAJ 8AAA/	8aaJ 8ff 8dd\	.	16aa\	.
.	.	.	16aa\JJ	.
=265	=265	=265	=265	=265
8BB-L 8BBB-/	8ggL 8dd 8g\	.	16gg\LL	.
.	.	.	16gg\	.
8BBn 8BBBn/	8ff 8dd 8g#X\	.	16ff\	.
.	.	.	16ff\	.
8C#X 8CC#X/	8ee 8a 8gn\	.	16ee\	.
.	.	.	16ee\	.
8DJ 8DD/	8ddJ 8a 8f\	.	16dd\	.
.	.	.	16dd\JJ	.
*	*	*	*Xtremolo	*
!!LO:LB:g=original
=266	=266	=266	=266	=266
2GG 2GGG/	8r	.	4ee\	.
.	8eeL 8dd 8b- 8e/	.	.	.
.	8ee 8dd 8b- 8e/	.	4bb-\	.
.	8eeJ 8dd 8b- 8e/	.	.	.
=267	=267	=267	=267	=267
2AA 2AAA/	8r	.	4aa\	.
.	8eeL 8cc#X 8a 8g\	.	.	.
.	8ee 8cc# 8a 8g\	.	4cc#X\	.
.	8eeJ 8cc# 8a 8g\	.	.	.
=268	=268	=268	=268	=268
8DD 8DDD/	4dd 4a 4f/	fff	4dd\	fff >
8DL 8DD/	.	.	.	]]
*	*	*	*tremolo	*
8C#X 8CC#X/	4ee 4a 4g\	ff <	16a\LL	ff <
.	.	.	16a\	.
8AAJ 8AAA/	.	.	16aa\	.
.	.	[	16aa\JJ	[
=269	=269	=269	=269	=269
8DL 8DD/	4ff 4a 4f\	>	16ff\LL	>
.	.	.	16ff\	]
8F 8FF/	.	] <	16dd\	<
.	.	.	16dd\	.
8E 8EE/	4gg 4cc 4b-\	.	16cc\	.
.	.	.	16cc\	.
8CJ 8CC/	.	.	16ccc\	.
.	.	[	16ccc\JJ	[
=270	=270	=270	=270	=270
8FL 8FF/	4aa 4cc 4a\	>	16aa\LL	>
.	.	.	16aa\	]
8A 8AA/	.	] <	16ff\	<
.	.	.	16ff\	.
8G#X 8GG#X/	4bbn 4ee 4dd\	.	16ee\	.
.	.	.	16ee\	.
8EJ 8EE/	.	.	16eee\	.
.	.	[	16eee\JJ	[
=271	=271	=271	=271	=271
8A 8AA\	4ccc 4ee 4cc\	>	16ccc\LL	>
.	.	.	16ccc\	]
8AAL 8AAA/	.	] <	16aa\	<
.	.	.	16aa\	.
8GG#X 8GGG#X/	4ccc#X 4aa 4ee 4cc#X\	.	16ccc#X\	.
.	.	.	16ccc#\	.
8GGnJ 8GGGn/	.	.	16aa\	.
.	.	.	16aa\JJ	.
=272	=272	=272	=272	=272
8FFL 8FFF/	8dddL 8aa 8dd\	.	16ddd\LL	.
.	.	.	16ddd\	.
8FF#X 8FFF#X/	8ccc 8aa 8ee-X\	.	16ccc\	.
.	.	.	16ccc\	.
8GG 8GGG/	8bb- 8gg 8dd\	.	16bb-\	.
.	.	.	16bb-\	.
8AAJ 8AAA/	8aaJ 8ff 8dd\	.	16aa\	.
.	.	.	16aa\JJ	.
!!LO:LB:g=original
=273	=273	=273	=273	=273
8BB-L 8BBB-/	8ggL 8dd 8g\	.	16gg\LL	.
.	.	.	16gg\	.
8BBn 8BBBn/	8ff 8dd 8g#X\	.	16ff\	.
.	.	.	16ff\	.
8C#X 8CC#X/	8ee 8a 8gn\	.	16ee\	.
.	.	.	16ee\	.
8DJ 8DD/	8ddJ 8a 8f\	.	16dd\	.
.	.	.	16dd\JJ	.
*	*	*	*Xtremolo	*
=274	=274	=274	=274	=274
2GG 2GGG/	8r	.	4ee\	.
.	8eeL 8dd 8b- 8e/	.	.	.
.	8ee 8dd 8b- 8e/	.	4bb-\	.
.	8eeJ 8dd 8b- 8e/	.	.	.
=275	=275	=275	=275	=275
2AA 2AAA/	8r	.	4aa\	.
.	8eeL 8cc#X 8a 8g\	.	.	.
.	8ee 8cc# 8a 8g\	.	4cc#X\	.
.	8eeJ 8cc# 8a 8g\	.	.	.
=276||	=276||	=276||	=276||	=276||
!!!OMD: Largo.
*M4/4	*M4/4	*	*M4/4	*
*met(c)	*met(c)	*	*met(c)	*
*tremolo	*	*	*	*
32DD/LLL	2dd 2f 2d/	fff	2dd 2d/	fff
32D/	.	.	.	.
32DD/	.	.	.	.
32D/	.	.	.	.
32DD/	.	.	.	.
32D/	.	.	.	.
32DD/	.	.	.	.
32D/	.	.	.	.
32DD/	.	.	.	.
32D/	.	.	.	.
32DD/	.	.	.	.
32D/	.	.	.	.
32DD/	.	.	.	.
32D/	.	.	.	.
32DD/	.	.	.	.
32D/JJJ	.	.	.	.
32DD/LLL	2dd 2cc 2f#X 2d/	<	2dd 2cc\	<
32D/	.	.	.	.
32DD/	.	.	.	.
32D/	.	.	.	.
32DD/	.	.	.	.
32D/	.	.	.	.
32DD/	.	.	.	.
32D/	.	.	.	.
32DD/	.	.	.	.
32D/	.	.	.	.
32DD/	.	.	.	.
32D/	.	.	.	.
32DD/	.	.	.	.
32D/	.	.	.	.
32DD/	.	.	.	.
32D/JJJ	.	.	.	.
=277	=277	=277	=277	=277
32DD/LLL	2dd 2bn 2g 2d/	.	2dd 2bn\	.
32D/	.	.	.	.
32DD/	.	.	.	.
32D/	.	.	.	.
32DD/	.	.	.	.
32D/	.	.	.	.
32DD/	.	.	.	.
32D/	.	.	.	.
32DD/	.	.	.	.
32D/	.	.	.	.
32DD/	.	.	.	.
32D/	.	.	.	.
32DD/	.	.	.	.
32D/	.	.	.	.
32DD/	.	.	.	.
32D/JJJ	.	.	.	.
32DD/LLL	4dd 4b-X 4g 4d/	.	(4dd 4b-X~\	.
32D/	.	.	.	.
32DD/	.	.	.	.
32D/	.	.	.	.
32DD/	.	.	.	.
32D/	.	.	.	.
32DD/	.	.	.	.
32D/	.	.	.	.
32DD/	4ee 4dd 4b- 4g 4e 4d/	[[	4ee 4b-~\)	[[
32D/	.	.	.	.
32DD/	.	.	.	.
32D/	.	.	.	.
32DD/	.	.	.	.
32D/	.	.	.	.
32DD/	.	.	.	.
32D/JJJ	.	.	.	.
*Xtremolo	*	*	*	*
=278	=278	=278	=278	=278
!	!	!	!LO:N:n=3:vis=4	!
4d 4A 4D\	2ff#X 2dd 2a 2f#X\	>	2ff#X\ 2a 2d	>
*8ba	*	*	*	*
*tremolo	*	*	*	*
32DDD/LLL	.	]	.	]
32AAA/	.	.	.	.
32DDD/	.	.	.	.
32AAA/	.	.	.	.
32DDD/	.	.	.	.
32AAA/	.	.	.	.
32DDD/	.	.	.	.
32AAA/JJJ	.	.	.	.
32DDD/LLL	4fff#X 4ddd 4aa 4ff#\	.	4ffff# 4ff# 4a 4d\	.
32AAA/	.	.	.	.
32DDD/	.	.	.	.
32AAA/	.	.	.	.
32DDD/	.	.	.	.
32AAA/	.	.	.	.
32DDD/	.	.	.	.
32AAA/	.	.	.	.
32DDD/	8.r	.	8.r	.
32AAA/	.	.	.	.
32DDD/	.	.	.	.
32AAA/	.	.	.	.
32DDD/	.	.	.	.
32AAA/	.	.	.	.
*	*clefF4	*	*	*
32DDD/	16D 16AA 16FF#X/	.	16d/	.
32AAA/JJJ	.	.	.	.
=279	=279	=279	=279	=279
32DDD/LLL	2.D 2.AA 2.FF#X/	.	2.d/	.
32AAA/	.	.	.	.
32DDD/	.	.	.	.
32AAA/	.	.	.	.
32DDD/	.	.	.	.
32AAA/	.	.	.	.
32DDD/	.	.	.	.
32AAA/	.	.	.	.
32DDD/	.	.	.	.
32AAA/	.	.	.	.
32DDD/	.	.	.	.
32AAA/	.	.	.	.
32DDD/	.	.	.	.
32AAA/	.	.	.	.
32DDD/	.	.	.	.
32AAA/JJJ	.	.	.	.
*Xtremolo	*	*	*	*
4DD 4AAA 4DDD/	.	.	.	.
*X8ba	*	*	*	*
4r	4r	.	4r	.
==	==	==	==	==
*-	*-	*-	*-	*-
!!!system-decoration: s1{(s2,s3)}
!!!RDF**kern: > = above
!!!RDF**kern: < = below
!!!ENC: Berenika Jozajtis
!!!END: 2022-05-17
!!!ENC: Marta Lawrence
!!!END: 2022-12-01
!!!ENC-mod: Marta Lawrence
!!!END-mod: 2022-12-06
!!!filter-modern: sic -sq | shed -e "s/TX(.*):t=P:/tx$1:t=P:/LG" | shed -k -e "s/([^a-gA-Gn#X-])[<>]/$1/g" | modori -m
!!!YEC: Copyright 2022 Narodowy Instytut Fryderyka Chopina (https://polishscores.org)
!!!YEM: License CC-BY-4.0 (https://creativecommons.org/licenses/by/4.0)
